Encoder/Shutter Encoder 17.6 Windows 64bits/LUTs/DJI-Phantom4-LOG-to-709.cube
# DaVinci Resolve Cube (3D LUT).
# Converts DJI Phantom4 DLOG data to Rec709
# Gamma as defined by ITU-Rec.1886.
LUT_3D_SIZE 33
0 0 0
0.00105287 0 0
0.00640879 0 0
0.0184024 0 0
0.0388952 0 0
0.0694743 0 0
0.109148 0 0
0.150454 0 0
0.192981 0 0
0.236545 0 0
0.280919 0 0
0.325948 0 0
0.371603 0 0
0.417899 0 0
0.464805 0 0
0.512291 0 0
0.560327 0 0
0.608881 0 0
0.657938 0 0
0.707469 0 0
0.757443 0 0
0.807858 0 0
0.858701 0 0
0.909926 0 0
0.961563 0 0
1 0 0
1 0 0
1 0 0
1 0 0
1 0 0
1 0 0
1 0 0
1 0 0
0 0.000701915 0
0.000640879 0.000610361 0
0.00514229 0.000411994 0.00015259
0.0175021 0 0
0.0380865 0 0
0.0687114 0 0
0.108492 0 0
0.149905 0 0
0.192538 0 0
0.236194 0 0
0.280674 0 0
0.325765 0 0
0.371466 0 0
0.417777 0 0
0.464683 0 0
0.512184 0 0
0.560235 0 0
0.608804 0 0
0.657862 0 0
0.707393 0 0
0.757382 0 0
0.807797 0 0
0.85864 0 0
0.90988 0 0
0.961501 0 0
1 0 0
1 0 0
1 0 0
1 0 0
1 0 0
1 0 0
1 0 0
1 0 0
0 0.00422675 0
0 0.0041352 0
0.00392157 0.00367742 0
0.0124361 0.00355535 0.00128176
0.0311437 0.00248722 0.000885023
0.0633402 0 0
0.104143 0 0
0.146502 0 0
0.189883 0 0
0.234134 0 0
0.279133 0 0
0.324712 0 0
0.370672 0 0
0.417105 0 0
0.464103 0 0
0.511666 0 0
0.559747 0 0
0.608362 0 0
0.65745 0 0
0.707012 0 0
0.757031 0 0
0.807477 0 0
0.858335 0 0
0.90959 0 0
0.961227 0 0
1 0 0
1 0 0
1 0 0
1 0 0
1 0 0
1 0 0
1 0 0
1 0 0
0 0.0121157 0
0 0.0120241 0
0 0.0115816 0
0.0112612 0.0105745 0
0.0270237 0.00994888 0.00195315
0.0483101 0.0100404 0.00416571
0.088014 0.00709545 0.002533
0.133959 0.00177005 0.000122072
0.180484 0 0
0.227131 0 0
0.27396 0 0
0.320974 0 0
0.368185 0 0
0.415427 0 0
0.46276 0 0
0.51046 0 0
0.558663 0 0
0.60737 0 0
0.656535 0 0
0.706172 0 0
0.756237 0 0
0.806729 0 0
0.857649 0 0
0.908949 0 0
0.960632 0 0
1 0 0
1 0 0
1 0 0
1 0 0
1 0 0
1 0 0
1 0 0
1 0 0
0 0.0255894 0
0 0.0254978 0
0 0.0250553 0
0.00299077 0.0240482 0
0.0237888 0.0223392 0
0.0512245 0.0204929 0
0.0750439 0.021561 0.00772107
0.10927 0.0198825 0.00816358
0.153903 0.0143435 0.00494392
0.205035 0.00584421 0.000549325
0.257435 0 0
0.30898 0 0
0.359731 0 0
0.409812 0 0
0.459251 0 0
0.508171 0 0
0.556756 0 0
0.605646 0 0
0.654963 0 0
0.704707 0 0
0.754894 0 0
0.805478 0 0
0.856458 0 0
0.907835 0 0
0.959579 0 0
1 0 0
1 0 0
1 0 0
1 0 0
1 0 0
1 0 0
1 0 0
1 0 0
0 0.045716 0
0 0.0456245 0
0 0.045182 0
0 0.0441749 0
0.0114595 0.0424659 0
0.0425116 0.0399023 0
0.0838636 0.0366674 0
0.107668 0.0374151 0.00975052
0.137011 0.0362402 0.0133059
0.172686 0.0323033 0.012665
0.218891 0.0243076 0.0081178
0.274342 0.0124208 0.00141909
0.332967 0 0
0.390692 0 0
0.44625 0 0
0.499886 0 0
0.55198 0 0
0.60267 0 0
0.652506 0 0
0.70248 0 0
0.752834 0 0
0.803571 0 0
0.854688 0 0
0.906172 0 0
0.958007 0 0
1 0 0
1 0 0
1 0 0
1 0 0
1 0 0
1 0 0
1 0 0
1 0 0
0 0.0734417 0
0 0.0733654 0
0 0.0729076 0
0 0.0719158 0
0 0.0701915 0
0.0254978 0.0676432 0
0.0682841 0.0641184 0
0.119387 0.0595407 0
0.150088 0.057557 0.00433356
0.172549 0.0568399 0.0159152
0.202274 0.0534066 0.0185092
0.237385 0.0472877 0.0173953
0.28307 0.0369726 0.0119326
0.340826 0.0218814 0.00308232
0.405631 0.00315862 0
0.470588 0 0
0.532341 0 0
0.590524 0 0
0.645808 0 0
0.698741 0 0
0.749859 0 0
0.80087 0 0
0.852186 0 0
0.903838 0 0
0.955825 0 0
1 0 0
1 0 0
1 0 0
1 0 0
1 0 0
1 0 0
1 0 0
1 0 0
0 0.107622 0
0 0.107546 0
0 0.107164 0
0 0.10631 0
0 0.104829 0
0.00331121 0.102602 0
0.0460822 0.0994888 0
0.100923 0.0953231 0
0.154147 0.0899672 0
0.199084 0.0842145 0
0.22002 0.0818494 0.00982681
0.24184 0.0788891 0.0206302
0.270527 0.0731212 0.0231785
0.304021 0.0647288 0.0218967
0.347402 0.0521859 0.0160067
0.404776 0.0342565 0.00553903
0.474296 0.0111849 0
0.547021 0 0
0.616541 0 0
0.680751 0 0
0.740185 0 0
0.795911 0 0
0.848692 0 0
0.900664 0 0
0.952895 0 0
1 0 0
1 0 0
1 0 0
1 0 0
1 0 0
1 0 0
1 0 0
1 0 0
0 0.142626 0
0 0.142565 0
0 0.142245 0
0 0.141527 0
0 0.140307 0
0 0.138476 0
0.0182345 0.135927 0
0.0740978 0.132525 0
0.134737 0.128206 0
0.18941 0.122805 0
0.24097 0.116243 0
0.277302 0.110933 0
0.295384 0.108263 0.0117952
0.315511 0.103731 0.0236667
0.341924 0.0954299 0.0269017
0.373327 0.0844892 0.0256504
0.413062 0.0697337 0.0198215
0.467445 0.0493172 0.00848402
0.538262 0.0225071 0
0.618448 0 0
0.697215 0 0
0.769238 0 0
0.834363 0 0
0.893767 0 0
0.948775 0 0
1 0 0
1 0 0
1 0 0
1 0 0
1 0 0
1 0 0
1 0 0
1 0 0
0 0.178393 0
0 0.178332 0
0 0.178073 0
0 0.177462 0
0 0.176425 0
0 0.174884 0
0 0.172717 0
0.0401007 0.169879 0
0.10808 0.166247 0
0.169284 0.161776 0
0.225254 0.156344 0
0.278721 0.149798 0
0.326345 0.142748 0
0.356191 0.137774 0
0.372885 0.134463 0.011902
0.392004 0.129122 0.0247044
0.4168 0.120119 0.0291295
0.445899 0.106554 0.0281071
0.481193 0.0894331 0.0228122
0.53048 0.0667582 0.011368
0.598978 0.0368963 0
0.684031 0.000289921 0
0.772549 0 0
0.854536 0 0
0.927092 0 0
0.991638 0 0
1 0 0
1 0 0
1 0 0
1 0 0
1 0 0
1 0 0
1 0 0
0 0.214847 0
0 0.214801 0
0 0.214572 0
0 0.214038 0
0 0.213153 0
0 0.21181 0
0 0.209964 0
0 0.207523 0
0.0697337 0.204425 0
0.142626 0.20061 0
0.204501 0.196002 0
0.261631 0.190524 0
0.316335 0.184039 0
0.369039 0.176516 0
0.411124 0.169497 0
0.436774 0.164538 0
0.452689 0.16051 0.00976577
0.470863 0.154437 0.0234989
0.494072 0.144854 0.0291752
0.521462 0.130877 0.0291142
0.552728 0.111162 0.0243381
0.595697 0.0862287 0.0134585
0.658457 0.0539406 0
0.743572 0.0132753 0
0.840879 0 0
0.934722 0 0
1 0 0
1 0 0
1 0 0
1 0 0
1 0 0
1 0 0
1 0 0
0 0.251942 0
0 0.251896 0
0 0.251698 0
0 0.25124 0
0 0.250462 0
0 0.249287 0
0 0.247669 0
0 0.245533 0
0.0221408 0.242832 0
0.105989 0.239506 0
0.177768 0.235523 0
0.240314 0.230823 0
0.298512 0.225284 0
0.35436 0.218845 0
0.40882 0.211383 0
0.458854 0.203342 0
0.496529 0.196338 0
0.519432 0.191165 0
0.534829 0.186404 0.00509651
0.552056 0.17966 0.019791
0.573709 0.169574 0.0267796
0.599344 0.15523 0.0278172
0.628367 0.135073 0.0238804
0.664363 0.107561 0.0140841
0.719066 0.0731212 0
0.79942 0.0294499 0
0.901808 0 0
1 0 0
1 0 0
1 0 0
1 0 0
1 0 0
1 0 0
0 0.289616 0
0 0.289586 0
0 0.289403 0
0 0.288991 0
0 0.288304 0
0 0.287266 0
0 0.285832 0
0 0.283955 0
0 0.281575 0
0.052903 0.27863 0
0.142412 0.27512 0
0.213489 0.270985 0
0.276677 0.266178 0
0.335882 0.260594 0
0.392782 0.254185 0
0.448295 0.24683 0
0.502358 0.238529 0
0.54876 0.230289 0
0.583017 0.223194 0
0.604334 0.217609 0
0.619333 0.212131 0
0.635355 0.204807 0.0135042
0.655772 0.194217 0.0216373
0.679713 0.179553 0.0238804
0.706783 0.159365 0.0209659
0.737392 0.130678 0.0125734
0.782956 0.0940719 0
0.854459 0.0481727 0
0.955352 0 0
1 0 0
1 0 0
1 0 0
1 0 0
0 0.327855 0
0 0.32781 0
0 0.327657 0
0 0.327291 0
0 0.326665 0
0 0.32575 0
0 0.324453 0
0 0.322774 0
0 0.320653 0
0 0.318029 0
0.0922866 0.314885 0
0.179019 0.311208 0
0.249744 0.30695 0
0.313573 0.302037 0
0.373693 0.296422 0
0.431586 0.290013 0
0.48806 0.28275 0
0.543648 0.274556 0
0.595987 0.265705 0
0.639338 0.257282 0
0.671153 0.249958 0
0.691569 0.243854 0
0.70631 0.237675 0
0.721416 0.229755 0.00390631
0.740291 0.218738 0.013489
0.762417 0.20383 0.0171054
0.787518 0.183658 0.0154116
0.815366 0.155566 0.00833143
0.851469 0.116579 0
0.91165 0.0688029 0
1 0.00946059 0
1 0 0
1 0 0
0 0.366598 0
0 0.366567 0
0 0.366415 0
0 0.366094 0
0 0.36553 0
0 0.364691 0
0 0.363531 0
0 0.36202 0
0 0.360098 0
0 0.357748 0
0.0214694 0.35491 0
0.132525 0.351568 0
0.21593 0.347753 0
0.286503 0.343359 0
0.350958 0.338369 0
0.411933 0.332708 0
0.470741 0.326314 0
0.528145 0.319127 0
0.584634 0.31107 0
0.640131 0.302083 0
0.690089 0.292897 0
0.731044 0.284245 0
0.761257 0.276585 0
0.781201 0.269871 0
0.795758 0.262989 0
0.81001 0.25452 0
0.827405 0.243122 0.00196841
0.847684 0.227985 0.00712596
0.870832 0.207828 0.00677501
0.896437 0.180331 0.00102235
0.925429 0.140597 0
0.973419 0.0908675 0
1 0.0296788 0
0 0.405829 0
0 0.405798 0
0 0.405661 0
0 0.405371 0
0 0.404852 0
0 0.404089 0
0 0.403037 0
0 0.401663 0
0 0.399908 0
0 0.397772 0
0 0.395209 0
0.062089 0.392172 0
0.171939 0.388678 0
0.253178 0.38471 0
0.323735 0.380224 0
0.3888 0.375143 0
0.450568 0.369436 0
0.510246 0.363058 0
0.568536 0.355917 0
0.625864 0.347982 0
0.682536 0.339147 0
0.737102 0.32961 0
0.784985 0.320104 0
0.824247 0.311116 0
0.853437 0.303029 0
0.873274 0.295659 0
0.8878 0.28809 0
0.901289 0.279072 0
0.917113 0.267323 0
0.935607 0.251987 0
0.95671 0.231876 0
0.979995 0.204929 0
1 0.166415 0
0 0.445518 0
0 0.445502 0
0 0.44538 0
0 0.445106 0
0 0.444633 0
0 0.443931 0
0 0.442969 0
0 0.441703 0
0 0.440101 0
0 0.438148 0
0 0.435798 0
0 0.433036 0
0.109773 0.429801 0
0.211002 0.426184 0
0.290791 0.422095 0
0.36144 0.417502 0
0.42707 0.412345 0
0.489601 0.406607 0
0.550103 0.400214 0
0.609201 0.393118 0
0.667353 0.385275 0
0.724804 0.376608 0
0.781674 0.367071 0
0.834699 0.357107 0
0.88101 0.34725 0
0.919295 0.33785 0
0.947799 0.329259 0
0.967819 0.321218 0
0.982422 0.312947 0
0.995346 0.303349 0
1 0.291356 0
1 0.275776 0
1 0.255726 0
0 0.485649 0
0 0.485634 0
0 0.485512 0
0 0.485267 0
0 0.484825 0
0 0.484184 0
0 0.483299 0
0 0.482124 0
0 0.480659 0
0 0.478859 0
0 0.476692 0
0 0.474159 0
0.014725 0.471199 0
0.154452 0.467811 0
0.249989 0.464057 0
0.328756 0.459861 0
0.399558 0.455177 0
0.465751 0.449943 0
0.529 0.44416 0
0.590265 0.437766 0
0.650172 0.430701 0
0.709087 0.42295 0
0.7673 0.41442 0
0.82501 0.405066 0
0.881529 0.394919 0
0.933196 0.384558 0
0.978378 0.374319 0
1 0.364462 0
1 0.355276 0
1 0.346532 0
1 0.33753 0
1 0.327367 0
1 0.315007 0
0 0.526192 0
0 0.526177 0
0 0.52607 0
0 0.525841 0
0 0.525429 0
0 0.524834 0
0 0.52401 0
0 0.522927 0
0 0.521569 0
0 0.519905 0
0 0.517906 0
0 0.515557 0
0 0.512825 0
0.0661173 0.509682 0
0.197269 0.506172 0
0.289021 0.502297 0
0.367102 0.497993 0
0.438087 0.493217 0
0.504814 0.487922 0
0.56875 0.482094 0
0.630762 0.475685 0
0.691402 0.468666 0
0.751064 0.46096 0
0.809995 0.452552 0
0.868406 0.443366 0
0.926436 0.433356 0
0.982193 0.422721 0
1 0.411948 0
1 0.401297 0
1 0.390906 0
1 0.381094 0
1 0.371603 0
1 0.361868 0
0 0.567147 0
0 0.567117 0
0 0.567025 0
0 0.566812 0
0 0.56643 0
0 0.565881 0
0 0.565103 0
0 0.564111 0
0 0.562844 0
0 0.561288 0
0 0.559426 0
0 0.557244 0
0 0.554711 0
0 0.551797 0
0.122255 0.548486 0
0.239109 0.544869 0
0.328206 0.540887 0
0.405798 0.536477 0
0.477012 0.531624 0
0.544259 0.526268 0
0.608835 0.520409 0
0.67155 0.513985 0
0.732906 0.506966 0
0.793271 0.499336 0
0.852903 0.49102 0
0.912001 0.481987 0
0.970672 0.472175 0
1 0.461555 0
1 0.450477 0
1 0.439277 0
1 0.428138 0
1 0.417197 0
1 0.406699 0
0 0.608469 0
0 0.608454 0
0 0.608362 0
0 0.608164 0
0 0.607813 0
0 0.607294 0
0 0.606577 0
0 0.605631 0
0 0.604456 0
0 0.603006 0
0 0.601267 0
0 0.599222 0
0 0.596857 0
0 0.594141 0
0.000564584 0.591058 0
0.172091 0.587625 0
0.280415 0.583902 0
0.36759 0.579797 0
0.444831 0.575296 0
0.516304 0.570367 0
0.584054 0.56495 0
0.649256 0.559045 0
0.712627 0.552621 0
0.77467 0.545617 0
0.835721 0.538033 0
0.896025 0.529809 0
0.955764 0.520897 0
1 0.511254 0
1 0.500832 0
1 0.489677 0
1 0.478157 0
1 0.466514 0
1 0.454871 0
0 0.650172 0
0 0.650156 0
0 0.650065 0
0 0.649866 0
0 0.649546 0
0 0.649058 0
0 0.648386 0
0 0.647501 0
0 0.646387 0
0 0.645045 0
0 0.643412 0
0 0.641505 0
0 0.639292 0
0 0.636744 0
0 0.63386 0
0.0636301 0.630594 0
0.218769 0.627054 0
0.321477 0.62324 0
0.407202 0.619043 0
0.48423 0.61445 0
0.555962 0.60943 0
0.624201 0.603967 0
0.689982 0.598032 0
0.754009 0.591577 0
0.816709 0.584604 0
0.878401 0.57705 0
0.939361 0.568902 0
0.999725 0.560098 0
1 0.550622 0
1 0.540398 0
1 0.529381 0
1 0.517739 0
1 0.505791 0
0 0.692226 0
0 0.692195 0
0 0.692119 0
0 0.691936 0
0 0.69163 0
0 0.691173 0
0 0.690532 0
0 0.689708 0
0 0.68867 0
0 0.687388 0
0 0.685863 0
0 0.684062 0
0 0.681987 0
0 0.679591 0
0 0.676875 0
0 0.673823 0
0.129717 0.67042 0
0.263691 0.666804 0
0.362417 0.662867 0
0.447059 0.658579 0
0.523934 0.65391 0
0.595956 0.648829 0
0.664668 0.643305 0
0.731029 0.637324 0
0.795651 0.630869 0
0.858976 0.623896 0
0.921309 0.616373 0
0.982879 0.608286 0
1 0.599588 0
1 0.590234 0
1 0.580194 0
1 0.569406 0
1 0.557855 0
0 0.734615 0
0 0.7346 0
0 0.734524 0
0 0.734356 0
0 0.734066 0
0 0.733623 0
0 0.733028 0
0 0.73225 0
0 0.731258 0
0 0.730053 0
0 0.728618 0
0 0.726909 0
0 0.724956 0
0 0.722698 0
0 0.72015 0
0 0.717266 0
0 0.714061 0
0.185595 0.710536 0
0.307561 0.706828 0
0.403372 0.7028 0
0.48716 0.698421 0
0.563973 0.693675 0
0.636286 0.688518 0
0.705455 0.682948 0
0.772351 0.676936 0
0.837568 0.670466 0
0.901503 0.663493 0
0.964446 0.656001 0
1 0.647959 0
1 0.639353 0
1 0.630121 0
1 0.620233 0
1 0.609659 0
0 0.77734 0
0 0.777325 0
0 0.777249 0
0 0.777081 0
0 0.776806 0
0 0.776394 0
0 0.77583 0
0 0.775097 0
0 0.774166 0
0 0.773022 0
0 0.771649 0
0 0.770047 0
0 0.768185 0
0 0.766064 0
0 0.763653 0
0 0.760937 0
0 0.7579 0
0.0534066 0.754528 0
0.236622 0.750942 0
0.35082 0.747127 0
0.444389 0.743008 0
0.52752 0.738552 0
0.604334 0.733715 0
0.676921 0.728511 0
0.746532 0.722881 0
0.813962 0.716838 0
0.879744 0.710353 0
0.944259 0.70338 0
1 0.695918 0
1 0.687922 0
1 0.679393 0
1 0.670253 0
1 0.660517 0
0 0.820386 0
0 0.820371 0
0 0.820294 0
0 0.820142 0
0 0.819883 0
0 0.819486 0
0 0.818952 0
0 0.81825 0
0 0.817365 0
0 0.816281 0
0 0.814984 0
0 0.813474 0
0 0.811704 0
0 0.809689 0
0 0.807401 0
0 0.804822 0
0 0.801953 0
0 0.798764 0
0.131853 0.795254 0
0.284947 0.791608 0
0.393698 0.787701 0
0.485527 0.78349 0
0.568154 0.778943 0
0.644984 0.774044 0
0.717876 0.76878 0
0.787915 0.763119 0
0.855848 0.757031 0
0.922179 0.750515 0
0.987243 0.743557 0
1 0.73611 0
1 0.728161 0
1 0.719692 0
1 0.710658 0
0 0.863737 0
0 0.863722 0
0 0.863661 0
0 0.863508 0
0 0.863264 0
0 0.862898 0
0 0.862379 0
0 0.861708 0
0 0.860868 0
0 0.859831 0
0 0.85861 0
0 0.85716 0
0 0.855482 0
0 0.853559 0
0 0.851392 0
0 0.848936 0
0 0.846204 0
0 0.843183 0
0 0.839841 0
0.194949 0.836255 0
0.33164 0.832517 0
0.436347 0.828534 0
0.526802 0.824231 0
0.609049 0.819623 0
0.685939 0.814649 0
0.759121 0.809323 0
0.829572 0.803616 0
0.897993 0.797498 0
0.964843 0.790967 0
1 0.784009 0
1 0.776577 0
1 0.768658 0
1 0.76025 0
0 0.907393 0
0 0.907378 0
0 0.907317 0
0 0.907179 0
0 0.906935 0
0 0.906584 0
0 0.906096 0
0 0.905455 0
0 0.904662 0
