Encoder/Shutter Encoder 17.6 Windows 64bits/LUTs/DJI-Phantom4-LOG-to-709.cube
# DaVinci Resolve Cube (3D LUT).
# Converts DJI Phantom4 DLOG data to Rec709
# Gamma as defined by ITU-Rec.1886.
LUT_3D_SIZE 9
0 0 0
0.0388952 0 0
0.192981 0 0
0.371603 0 0
0.560327 0 0
0.757443 0 0
0.961563 0 0
1 0 0
1 0 0
0 0.0255894 0
0.0237888 0.0223392 0
0.153903 0.0143435 0.00494392
0.359731 0 0
0.556756 0 0
0.754894 0 0
0.959579 0 0
1 0 0
1 0 0
0 0.142626 0
0 0.140307 0
0.134737 0.128206 0
0.295384 0.108263 0.0117952
0.413062 0.0697337 0.0198215
0.697215 0 0
0.948775 0 0
1 0 0
1 0 0
0 0.289616 0
0 0.288304 0
0 0.281575 0
0.276677 0.266178 0
0.502358 0.238529 0
0.619333 0.212131 0
0.706783 0.159365 0.0209659
0.955352 0 0
1 0 0
0 0.445518 0
0 0.444633 0
0 0.440101 0
0.109773 0.429801 0
0.42707 0.412345 0
0.667353 0.385275 0
0.88101 0.34725 0
0.982422 0.312947 0
1 0.255726 0
0 0.608469 0
0 0.607813 0
0 0.604456 0
0 0.596857 0
0.280415 0.583902 0
0.584054 0.56495 0
0.835721 0.538033 0
1 0.500832 0
1 0.454871 0
0 0.77734 0
0 0.776806 0
0 0.774166 0
0 0.768185 0
0 0.7579 0
0.444389 0.743008 0
0.746532 0.722881 0
1 0.695918 0
1 0.660517 0
0 0.951339 0
0 0.950912 0
0 0.94873 0
0 0.943832 0
0 0.935393 0
0.128023 0.922683 0
0.609888 0.906493 0
0.913725 0.885405 0
1 0.858289 0
0 1 0
0 1 0
0 1 0
0 1 0
0 1 0
0 1 0
0.371069 1 0
0.778393 1 0
1 1 0
0 0 0.0256962
0.037644 0 0.0251621
0.193072 0 0.0227512
0.371405 0 0.0175174
0.56022 0 0.00860609
0.757382 0 0
0.961517 0 0
1 0 0
1 0 0
0 0.0252079 0.0225223
0.0220493 0.0219577 0.0220188
0.183398 0.0059968 0.0198062
0.366247 0 0.0144656
0.556771 0 0.00553903
0.754864 0 0
0.959564 0 0
1 0 0
1 0 0
0 0.142351 0.00642405
0 0.140032 0.00590524
0.133455 0.127901 0.00332647
0.28307 0.111086 0.0406806
0.434226 0.0645304 0.0298619
0.723568 0 0
0.949203 0 0
1 0 0
1 0 0
0 0.289464 0
0 0.288151 0
0 0.281407 0
0.275959 0.265995 0
0.500603 0.23856 0
0.60557 0.215351 0.0289616
0.706111 0.159945 0.0390631
0.99852 0 0
1 0 0
0 0.445411 0
0 0.444526 0
0 0.439994 0
0.108309 0.429694 0
0.426581 0.412238 0
0.667033 0.385153 0
0.875776 0.348058 0
0.967712 0.316289 0
1 0.257542 0.00114443
0 0.608392 0
0 0.607721 0
0 0.604364 0
0 0.59678 0
0.279713 0.58381 0
0.583703 0.564858 0
0.835477 0.537942 0
1 0.50074 0
1 0.455894 0
0 0.777264 0
0 0.776745 0
0 0.77409 0
0 0.768124 0
0 0.757824 0
0.443931 0.742947 0
0.746258 0.72282 0
1 0.695842 0
1 0.660441 0
0 0.951293 0
0 0.950851 0
0 0.948669 0
0 0.943771 0
0 0.935347 0
0.126726 0.922621 0
0.609552 0.906432 0
0.913497 0.885344 0
1 0.858228 0
0 1 0
0 1 0
0 1 0
0 1 0
0 1 0
0 1 0
0.37052 1 0
0.778134 1 0
1 1 0
0 0 0.143191
0.0289158 0 0.142794
0.188571 0 0.140841
0.369299 0 0.13695
0.559091 0 0.130373
0.756741 0 0.120195
0.961166 0 0.105211
1 0 0.0833295
1 0 0.0532692
0 0.0232853 0.140932
0.0132448 0.0200351 0.140551
0.179507 0.00373846 0.138567
0.364309 0 0.134646
0.555749 0 0.127993
0.754284 0 0.117693
0.959243 0 0.10248
1 0 0.079942
1 0 0.0501411
0 0.140963 0.129122
0 0.138628 0.128725
0.126864 0.126421 0.126726
0.337728 0.0964675 0.122713
0.538369 0.0351568 0.115618
0.741588 0 0.10454
0.949355 0 0.0879835
1 0 0.0641031
1 0 0.0342565
0 0.288655 0.100191
0 0.287343 0.099733
0 0.280583 0.0973678
0.272297 0.265141 0.0921645
0.459724 0.24567 0.120485
0.572229 0.225071 0.1458
0.790539 0.139864 0.0995499
1 0 0.0301823
1 0 0
0 0.444862 0.0410925
0 0.443961 0.0405737
0 0.439429 0.0379492
0.100771 0.429129 0.0320439
0.42414 0.411643 0.0226596
0.665476 0.384527 0.0090486
0.826276 0.357443 0.0557565
0.908904 0.331197 0.11191
1 0.262943 0.0988785
0 0.607965 0
0 0.607309 0
0 0.603937 0
0 0.596353 0
0.276097 0.583383 0
0.581918 0.564416 0
0.834241 0.537469 0
1 0.500801 0
1 0.464576 0
0 0.776928 0
0 0.77641 0
0 0.773754 0
0 0.767788 0
0 0.757488 0
0.441581 0.74258 0
0.744869 0.722454 0
1 0.695476 0
1 0.660044 0
0 0.951003 0
0 0.950576 0
0 0.948394 0
0 0.943481 0
0 0.935058 0
0.120027 0.922332 0
0.607843 0.906142 0
0.912367 0.885039 0
1 0.857908 0
0 1 0
0 1 0
0 1 0
0 1 0
0 1 0
0 1 0
0.367742 1 0
0.776806 1 0
1 1 0
0 0 0.290593
0.00926223 0 0.290349
0.17731 0 0.289097
0.36347 0 0.286748
0.55552 0 0.283055
0.754376 0 0.277668
0.959533 0 0.270207
1 0 0.260243
1 0 0.247242
0 0.019028 0.289311
0 0.0157778 0.289067
0.167758 0 0.287816
0.358419 0 0.285435
0.552193 0 0.281727
0.751934 0 0.276326
0.957626 0 0.268833
1 0 0.258824
1 0 0.245762
0 0.137911 0.282719
0 0.135546 0.282475
0.111254 0.12314 0.281254
0.331762 0.0923476 0.278767
0.534997 0.0306706 0.274998
0.739437 0 0.269505
0.947906 0 0.26186
1 0 0.251606
1 0 0.238209
0 0.286915 0.267887
0 0.285603 0.267643
0 0.278813 0.266392
0.263966 0.263279 0.263752
0.494194 0.235706 0.259968
0.710369 0.18822 0.254108
0.925444 0.100084 0.24593
1 0 0.234989
1 0 0.220676
0 0.443671 0.241245
0 0.442771 0.240986
0 0.438224 0.239628
0.0825666 0.427909 0.236561
0.418662 0.410361 0.231891
0.615915 0.392691 0.266285
0.740902 0.379095 0.295613
0.938186 0.327977 0.270893
1 0.203189 0.207462
0 0.60705 0.196429
0 0.606394 0.196124
0 0.603021 0.194553
0 0.595422 0.191028
0.267903 0.582422 0.185046
0.57789 0.563424 0.176898
0.831357 0.536446 0.165698
0.990753 0.515343 0.224979
1 0.497551 0.277668
0 0.776181 0.11635
0 0.775647 0.115923
0 0.772992 0.113741
0 0.767025 0.108782
0 0.756725 0.100023
0.436286 0.741802 0.0869306
0.741726 0.721645 0.0681621
1 0.694636 0.0438392
1 0.65977 0.0189059
0 0.950362 0
0 0.949935 0
0 0.947753 0
0 0.94284 0
0 0.934417 0
0.104051 0.921691 0
0.603983 0.90547 0
0.909819 0.884352 0
1 0.857206 0
0 1 0
0 1 0
0 1 0
0 1 0
0 1 0
0 1 0
0.361471 1 0
0.7738 1 0
1 1 0
0 0 0.446799
0 0 0.446601
0.156405 0 0.44567
0.352865 0 0.443961
0.548852 0 0.441398
0.749752 0 0.437812
0.95613 0 0.433005
1 0 0.426749
1 0 0.41883
0 0.0117952 0.445914
0 0.00854505 0.445731
0.145846 0 0.4448
0.347662 0 0.443076
0.54548 0 0.440513
0.747295 0 0.436927
0.954223 0 0.432105
1 0 0.425834
1 0 0.417899
0 0.132631 0.441459
0 0.130205 0.441291
0.0805676 0.117433 0.440375
0.320119 0.0853895 0.438575
0.528099 0.0232853 0.43595
0.734783 0 0.432334
0.944533 0 0.427482
1 0 0.421164
1 0 0.413138
0 0.284016 0.431739
0 0.282673 0.431571
0 0.275837 0.430671
0.249302 0.260136 0.428763
0.487297 0.231968 0.425925
0.706035 0.18378 0.42211
0.922393 0.0932631 0.417075
1 0 0.41062
1 0 0.40238
0 0.441733 0.415076
0 0.440833 0.414893
0 0.436271 0.413962
0.0488136 0.425895 0.411887
0.409232 0.40824 0.408927
0.654154 0.38143 0.405219
0.883726 0.340856 0.399893
1 0.27985 0.392889
1 0.179767 0.383948
0 0.605631 0.389258
0 0.604959 0.389059
0 0.601587 0.388083
0 0.593957 0.385901
0.253483 0.580911 0.3823
0.571099 0.561868 0.377829
0.777142 0.545129 0.415747
0.911345 0.535302 0.447486
1 0.496376 0.431159
0 0.775036 0.350988
0 0.774517 0.350774
0 0.771847 0.349737
0 0.765866 0.347372
0 0.75555 0.343297
0.427237 0.740581 0.337819
0.736461 0.720378 0.331151
1 0.69337 0.32311
1 0.67657 0.394888
0 0.949386 0.294286
0 0.948943 0.294041
0 0.946761 0.292851
0 0.941848 0.290181
0 0.93341 0.285557
0.0726177 0.920668 0.278538
0.597421 0.904402 0.270283
0.905531 0.883253 0.259831
1 0.856077 0.246387
0 1 0.204349
0 1 0.204044
0 1 0.202502
0 1 0.199039
0 1 0.193042
0 1 0.183871
0.35053 1 0.171145
0.768673 1 0.155703
1 1 0.135042
0 0 0.609888
0 0 0.609735
0.120577 0 0.608942
0.336233 0 0.607584
0.53843 0 0.605615
0.742458 0 0.602945
0.950698 0 0.599466
1 0 0.595026
1 0 0.589487
0 0.00103761 0.609232
0 0 0.609079
0.107759 0 0.608301
0.33077 0 0.606912
0.534997 0 0.604944
0.739986 0 0.602274
0.948791 0 0.598779
1 0 0.594339
1 0 0.5888
0 0.124514 0.60589
0 0.121981 0.605753
0.0305486 0.108598 0.605005
0.301778 0.0743877 0.603555
0.51725 0.0124208 0.601556
0.727352 0 0.598856
0.939071 0 0.595346
1 0 0.590875
1 0 0.585306
0 0.279667 0.598795
0 0.278325 0.598657
0 0.271382 0.597925
0.22594 0.255421 0.596353
0.475441 0.226688 0.594171
0.69836 0.17731 0.591257
0.916915 0.0828107 0.58761
1 0 0.583093
1 0 0.577462
0 0.43888 0.586877
0 0.43798 0.58674
0 0.433387 0.586007
0 0.42295 0.58436
0.394812 0.405142 0.582025
0.646662 0.377752 0.578927
0.878614 0.336828 0.575051
1 0.27509 0.570184
1 0.173022 0.564141
0 0.60354 0.568933
0 0.602884 0.568795
0 0.599496 0.568032
0 0.591852 0.566354
0.23064 0.578698 0.563592
0.560845 0.559579 0.560464
0.817685 0.532998 0.556802
1 0.495674 0.551736
1 0.444358 0.545373
0 0.773419 0.543496
0 0.7729 0.543343
0 0.77023 0.54255
0 0.764233 0.54081
0 0.753902 0.53782
0.413489 0.738842 0.533944
0.728634 0.718593 0.529549
0.942229 0.702434 0.570092
1 0.695033 0.603525
0 0.948074 0.508492
0 0.947631 0.508339
0 0.945449 0.507515
0 0.94052 0.505684
0 0.932067 0.502541
0.0225528 0.919326 0.497826
0.587671 0.902983 0.492729
0.89926 0.881788 0.486686
1 0.854643 0.480171
0 1 0.460792
0 1 0.460624
0 1 0.459754
0 1 0.457786
0 1 0.454414
0 1 0.449363
0.333822 1 0.442634
0.761166 1 0.435752
1 1 0.427344
0 0 0.778698
0 0 0.778561
0.0566262 0 0.77789
0.311864 0 0.776669
0.523552 0 0.775082
0.732067 0 0.772961
0.942931 0 0.770245
1 0 0.766857
1 0 0.762692
0 0 0.778164
0 0 0.778042
0.0409705 0 0.777371
0.306004 0 0.77615
0.520012 0 0.774548
0.729564 0 0.772427
0.941009 0 0.769711
1 0 0.766323
1 0 0.762158
0 0.112734 0.775509
0 0.110033 0.775387
0 0.0956588 0.774746
0.274647 0.0595254 0.77348
0.501717 0 0.771847
0.716747 0 0.769696
0.931212 0 0.766964
1 0 0.763561
1 0 0.759396
0 0.273625 0.76997
0 0.272236 0.769833
0 0.265171 0.769207
0.189975 0.248829 0.767803
0.458412 0.219318 0.766018
0.687236 0.168215 0.763668
0.908888 0.0675975 0.760815
1 0 0.757382
1 0 0.753185
0 0.434958 0.76083
0 0.434043 0.760693
0 0.429419 0.760067
0 0.418891 0.758663
0.374121 0.400839 0.756649
0.634531 0.373083 0.754162
0.870268 0.331563 0.751019
1 0.268742 0.747219
1 0.163638 0.742657
0 0.600717 0.747265
0 0.600046 0.747143
0 0.596643 0.746502
0 0.588968 0.745083
0.195621 0.575708 0.742718
0.546471 0.556466 0.7402
0.809735 0.529305 0.736889
1 0.491768 0.732967
1 0.44007 0.728206
0 0.771252 0.728405
0 0.770718 0.728283
0 0.768048 0.727626
0 0.762036 0.726192
0 0.751659 0.723705
0.393835 0.736492 0.720546
0.717754 0.716182 0.717266
0.984604 0.689616 0.713619
1 0.654139 0.708736
0 0.946319 0.703166
0 0.945891 0.703044
0 0.943694 0.702373
0 0.93875 0.700893
0 0.930282 0.698344
0 0.91751 0.694545
0.574014 0.901061 0.690669
0.890593 0.879835 0.686305
1 0.864042 0.728985
0 1 0.670161
0 1 0.670024
0 1 0.669337
0 1 0.667811
0 1 0.665171
0 1 0.66125
0.30956 1 0.656062
0.750805 1 0.65127
1 1 0.645563
0 0 0.952422
0 0 0.952316
0 0 0.951705
0.277089 0 0.950561
0.503365 0 0.949187
0.718135 0 0.947433
0.932525 0 0.945235
1 0 0.942519
1 0 0.939223
0 0 0.951995
0 0 0.951873
0 0 0.951278
0.270558 0 0.950118
0.499687 0 0.948745
0.715572 0 0.94699
0.930571 0 0.944778
1 0 0.942061
1 0 0.938781
0 0.0960403 0.949783
0 0.0930495 0.94966
0 0.0768139 0.949096
0.235111 0.0401617 0.947906
0.480598 0 0.946502
0.70248 0 0.944732
0.920668 0 0.942504
1 0 0.939773
1 0 0.936477
0 0.265553 0.945235
0 0.264149 0.945113
0 0.256886 0.944549
0.132692 0.240009 0.943236
0.435111 0.20943 0.94168
0.672251 0.155856 0.939727
0.89807 0.048127 0.937392
1 0 0.934646
1 0 0.931334
0 0.429801 0.937881
0 0.428885 0.937774
0 0.424201 0.937224
0 0.41355 0.935958
0.345342 0.395193 0.934096
0.618097 0.366995 0.932021
0.858869 0.324681 0.929397
1 0.260365 0.926253
1 0.150912 0.922576
0 0.597025 0.927108
0 0.596353 0.927001
0 0.592935 0.926436
0 0.585199 0.925185
0.140459 0.571817 0.923033
0.527123 0.552392 0.920836
0.797314 0.524941 0.91812
1 0.487007 0.914794
1 0.434714 0.910887
0 0.768429 0.912306
0 0.767895 0.912184
0 0.765209 0.91162
0 0.759182 0.910353
0 0.748775 0.908186
0.366674 0.73344 0.905379
0.703319 0.713039 0.902647
0.976257 0.685863 0.899168
1 0.650233 0.895186
0 0.94406 0.89276
0 0.943633 0.892638
0 0.941436 0.892058
0 0.936492 0.890776
0 0.927993 0.888579
0 0.91519 0.885283
0.555734 0.898589 0.882017
0.879179 0.877287 0.878599
1 0.850629 0.874937
0 1 0.867674
0 1 0.867552
0 1 0.866972
0 1 0.865644
0 1 0.863401
0 1 0.860044
0.275029 1 0.855604
0.737087 1 0.85185
1 1 0.847471
0 0 1
0 0 1
0 0 1
0.226795 0 1
0.476707 0 1
0.700114 0 1
0.919142 0 1
1 0 1
1 0 1
0 0 1
0 0 1
0 0 1
0.218997 0 1
0.472816 0 1
0.697475 0 1
0.917174 0 1
1 0 1
1 0 1
0 0.0722667 1
0 0.0690166 1
0 0.0525826 1
0.175387 0.0158389 1
0.452583 0 1
0.684001 0 1
0.907088 0 1
1 0 1
1 0 1
0 0.255131 1
0 0.253666 1
0 0.246143 1
0.0287785 0.228595 1
0.403937 0.19646 1
0.652811 0.139254 1
0.884108 0.0236973 1
1 0 1
1 0 1
0 0.423255 1
0 0.422324 1
0 0.417578 1
0 0.406775 1
0.305623 0.388022 1
0.596735 0.359243 1
0.844099 0.315923 1
1 0.249577 1
1 0.133806 1
0 0.592386 1
0 0.591699 1
0 0.588251 1
0 0.580468 1
0.0402228 0.566964 1
0.501747 0.547265 1
0.781186 0.519493 1
1 0.481071 1
1 0.428031 1
0 0.764889 1
0 0.764355 1
0 0.761669 1
0 0.755596 1
0 0.745144 1
0.329549 0.729641 1
0.684749 0.709102 1
0.963577 0.681682 1
1 0.645731 1
0 0.941253 1
0 0.94081 1
0 0.938613 1
0 0.933654 1
0 0.925139 1
0 0.912291 1
0.531853 0.895506 1
0.864652 0.874128 1
1 0.846845 1
0 1 1
0 1 1
0 1 1
0 1 1
0 1 1
0 1 1
0.225315 1 1
0.719509 1 1
1 1 1
