Encoder/Shutter Encoder 17.6 Windows 64bits/LUTs/DJI-Phantom4-LOG-to-709.cube
# DaVinci Resolve Cube (3D LUT).
# Converts DJI Phantom4 DLOG data to Rec709
# Gamma as defined by ITU-Rec.1886.
LUT_3D_SIZE 5
0 0 0
0.192981 0 0
0.560327 0 0
0.961563 0 0
1 0 0
0 0.142626 0
0.134737 0.128206 0
0.413062 0.0697337 0.0198215
0.948775 0 0
1 0 0
0 0.445518 0
0 0.440101 0
0.42707 0.412345 0
0.88101 0.34725 0
1 0.255726 0
0 0.77734 0
0 0.774166 0
0 0.7579 0
0.746532 0.722881 0
1 0.660517 0
0 1 0
0 1 0
0 1 0
0.371069 1 0
1 1 0
0 0 0.143191
0.188571 0 0.140841
0.559091 0 0.130373
0.961166 0 0.105211
1 0 0.0532692
0 0.140963 0.129122
0.126864 0.126421 0.126726
0.538369 0.0351568 0.115618
0.949355 0 0.0879835
1 0 0.0342565
0 0.444862 0.0410925
0 0.439429 0.0379492
0.42414 0.411643 0.0226596
0.826276 0.357443 0.0557565
1 0.262943 0.0988785
0 0.776928 0
0 0.773754 0
0 0.757488 0
0.744869 0.722454 0
1 0.660044 0
0 1 0
0 1 0
0 1 0
0.367742 1 0
1 1 0
0 0 0.446799
0.156405 0 0.44567
0.548852 0 0.441398
0.95613 0 0.433005
1 0 0.41883
0 0.132631 0.441459
0.0805676 0.117433 0.440375
0.528099 0.0232853 0.43595
0.944533 0 0.427482
1 0 0.413138
0 0.441733 0.415076
0 0.436271 0.413962
0.409232 0.40824 0.408927
0.883726 0.340856 0.399893
1 0.179767 0.383948
0 0.775036 0.350988
0 0.771847 0.349737
0 0.75555 0.343297
0.736461 0.720378 0.331151
1 0.67657 0.394888
0 1 0.204349
0 1 0.202502
0 1 0.193042
0.35053 1 0.171145
1 1 0.135042
0 0 0.778698
0.0566262 0 0.77789
0.523552 0 0.775082
0.942931 0 0.770245
1 0 0.762692
0 0.112734 0.775509
0 0.0956588 0.774746
0.501717 0 0.771847
0.931212 0 0.766964
1 0 0.759396
0 0.434958 0.76083
0 0.429419 0.760067
0.374121 0.400839 0.756649
0.870268 0.331563 0.751019
1 0.163638 0.742657
0 0.771252 0.728405
0 0.768048 0.727626
0 0.751659 0.723705
0.717754 0.716182 0.717266
1 0.654139 0.708736
0 1 0.670161
0 1 0.669337
0 1 0.665171
0.30956 1 0.656062
1 1 0.645563
0 0 1
0 0 1
0.476707 0 1
0.919142 0 1
1 0 1
0 0.0722667 1
0 0.0525826 1
0.452583 0 1
0.907088 0 1
1 0 1
0 0.423255 1
0 0.417578 1
0.305623 0.388022 1
0.844099 0.315923 1
1 0.133806 1
0 0.764889 1
0 0.761669 1
0 0.745144 1
0.684749 0.709102 1
1 0.645731 1
0 1 1
0 1 1
0 1 1
0.225315 1 1
1 1 1
