Encoder/Shutter Encoder 17.6 Windows 64bits/LUTs/Mavic-Pro-LOG-to-709.cube
TITLE "Generate by Resolve"
LUT_3D_SIZE 9
0 0 0
0.0315862 0 0
0.149783 0 0
0.318532 0 0
0.567163 0 0
0.946654 0 0
1 0 0
1 0 0
1 0 0
0 0.0182803 0
0.014435 0.0127108 0
0.137865 0 0
0.312322 0 0
0.563668 0 0
0.94464 0 0
1 0 0
1 0 0
1 0 0
0 0.113649 0
0 0.109041 0
0.101717 0.0960555 0
0.295171 0.0568704 0
0.554253 0 0
0.939269 0 0
1 0 0
1 0 0
1 0 0
0 0.262501 0
0 0.260105 0
0 0.25362 0
0.24419 0.235569 0
0.528283 0.180301 0
0.924758 0 0
1 0 0
1 0 0
1 0 0
0 0.479942 0
0 0.478599 0
0 0.474998 0
0.0130007 0.465248 0
0.451545 0.438193 0
0.884764 0.356176 0
1 0 0
1 0 0
1 0 0
0 0.810925 0
0 0.810147 0
0 0.808087 0
0 0.802563 0
0.0983139 0.787594 0
0.766796 0.746044 0
1 0.6206 0
1 0 0
1 0 0
0 1 0
0 1 0
0 1 0
0 1 0
0 1 0
0.23949 1 0
1 1 0
1 1 0
1 0 0
0 1 0
0 1 0
0 1 0
0 1 0
0 1 0
0 1 0
0.444511 1 0
1 1 0
1 1 0
0 1 0
0 1 0
0 1 0
0 1 0
0 1 0
0 1 0
0 1 0
0.755993 1 0
1 1 0
0 0 0.0141756
0.027512 0 0.0123903
0.147021 0 0.00762951
0.317067 0 0
0.566339 0 0
0.946166 0 0
1 0 0
1 0 0
1 0 0
0 0.0159304 0.0122835
0.0103609 0.0103609 0.0105135
0.13492 0 0.00575265
0.310826 0 0
0.562844 0 0
0.944167 0 0
1 0 0
1 0 0
1 0 0
0 0.111727 0.00726329
0 0.107057 0.00549325
0.098085 0.093904 0.000732433
0.293599 0.0545205 0
0.553414 0 0
0.938796 0 0
1 0 0
1 0 0
1 0 0
0 0.261494 0
0 0.259098 0
0 0.252583 0
0.242329 0.23447 0
0.527398 0.178912 0
0.924269 0 0
1 0 0
1 0 0
1 0 0
0 0.479377 0
0 0.478035 0
0 0.474434 0
0.00892653 0.464668 0
0.450492 0.437568 0
0.884245 0.355413 0
1 0 0
1 0 0
1 0 0
0 0.810605 0
0 0.809827 0
0 0.807767 0
0 0.802228 0
0.0946212 0.787259 0
0.766186 0.745693 0
1 0.620172 0
1 0 0
1 0 0
0 1 0
0 1 0
0 1 0
0 1 0
0 1 0
0.237598 1 0
1 1 0
1 1 0
1 0 0
0 1 0
0 1 0
0 1 0
0 1 0
0 1 0
0 1 0
0.443442 1 0
1 1 0
1 1 0
0 1 0
0 1 0
0 1 0
0 1 0
0 1 0
0 1 0
0 1 0
0.755383 1 0
1 1 0
0 0 0.101472
0.0166171 0 0.0998856
0.139422 0 0.095613
0.313115 0 0.0835889
0.564111 0 0.0495003
0.9449 0 0
1 0 0
1 0 0
1 0 0
0 0.00965896 0.0998093
0 0.00408942 0.0982071
0.126818 0 0.0938888
0.306813 0 0.0817273
0.560616 0 0.0476234
0.942885 0 0
1 0 0
1 0 0
1 0 0
0 0.106462 0.0952773
0 0.10164 0.0936446
0.0879988 0.088014 0.089189
0.289357 0.048249 0.076463
0.551141 0 0.0426032
0.937514 0 0
1 0 0
1 0 0
1 0 0
0 0.258793 0.082536
0 0.256367 0.0805066
0 0.249805 0.075761
0.237293 0.231495 0.0630655
0.525017 0.175189 0.029221
0.922972 0 0
1 0 0
1 0 0
1 0 0
0 0.477867 0.0465553
0 0.476509 0.04477
0 0.472892 0.0400244
0 0.463111 0.0273289
0.4477 0.43592 0
0.882872 0.353384 0
1 0 0
1 0 0
1 0 0
0 0.809735 0
0 0.808957 0
0 0.806897 0
0 0.801358 0
0.0842908 0.786358 0
0.764584 0.744747 0
1 0.619013 0
1 0 0
1 0 0
0 1 0
0 1 0
0 1 0
0 1 0
0 1 0
0.232471 1 0
1 1 0
1 1 0
1 0 0
0 1 0
0 1 0
0 1 0
0 1 0
0 1 0
0 1 0
0.440604 1 0
1 1 0
1 1 0
0 1 0
0 1 0
0 1 0
0 1 0
0 1 0
0 1 0
0 1 0
0.753765 1 0
1 1 0
0 0 0.244053
0 0 0.243244
0.11754 0 0.241062
0.302373 0 0.235142
0.55816 0 0.218708
0.941497 0 0.168704
1 0 0
1 0 0
1 0 0
0 0 0.243198
0 0 0.242374
0.103243 0 0.240192
0.295842 0 0.234257
0.55462 0 0.217762
0.939483 0 0.167544
1 0 0
1 0 0
1 0 0
0 0.0915236 0.240894
0 0.0862287 0.24007
0.058854 0.0711986 0.237858
0.277775 0.0315251 0.231876
0.545052 0 0.215228
0.934066 0 0.164416
1 0 0
1 0 0
1 0 0
0 0.251453 0.234638
0 0.248966 0.233799
0 0.242222 0.23154
0.223362 0.223392 0.225422
0.518593 0.16492 0.208347
0.919478 0 0.15581
1 0 0
1 0 0
1 0 0
0 0.473808 0.217227
0 0.47245 0.216327
0 0.468803 0.213916
0 0.458915 0.207355
0.440146 0.431464 0.188952
0.87921 0.347906 0.130877
1 0 0
1 0 0
1 0 0
0 0.807416 0.163729
0 0.806638 0.1626
0 0.804562 0.159564
0 0.799008 0.151232
0.055024 0.783963 0.127108
0.760281 0.742199 0.0437171
1 0.615915 0
1 0 0
1 0 0
0 1 0
0 1 0
0 1 0
0 1 0
0 1 0
0.218296 1 0
1 1 0
1 1 0
1 0 0
0 1 0
0 1 0
0 1 0
0 1 0
0 1 0
0 1 0
0.432929 1 0
1 1 0
1 1 0
0 1 0
0 1 0
0 1 0
0 1 0
0 1 0
0 1 0
0 1 0
0.749401 1 0
1 1 0
0 0 0.451438
0 0 0.450996
0.0442664 0 0.449775
0.271778 0 0.446494
0.541955 0 0.437659
0.932342 0 0.413123
1 0 0.33933
1 0 0
1 0 0
0 0 0.450965
0 0 0.450507
0.0271153 0 0.449287
0.264576 0 0.446006
0.538293 0 0.437156
0.930297 0 0.412604
1 0 0.338689
1 0 0
1 0 0
0 0.0469978 0.449668
0 0.0414282 0.44921
0 0.026566 0.44799
0.244465 0 0.444709
0.52842 0 0.435828
0.924834 0 0.4112
1 0 0.336996
1 0 0
1 0 0
0 0.2309 0.44622
0 0.228214 0.445762
0 0.220935 0.444526
0.182025 0.200443 0.441215
0.501076 0.134798 0.432258
0.910079 0 0.407416
1 0 0.332403
1 0 0
1 0 0
0 0.462806 0.436866
0 0.461402 0.436408
0 0.457664 0.435142
0 0.447547 0.431754
0.419318 0.419348 0.422614
0.869322 0.33286 0.397162
1 0 0.319875
1 0 0
1 0 0
0 0.801175 0.410895
0 0.800397 0.410391
0 0.798306 0.409049
0 0.792706 0.405463
0 0.777523 0.395712
0.748684 0.735363 0.36846
1 0.607553 0.283925
1 0 0
1 0 0
0 1 0.332036
0 1 0.331426
0 1 0.329778
0 1 0.325338
0 1 0.313222
0.175998 1 0.278538
1 1 0.157733
1 1 0
1 0 0
0 1 0
0 1 0
0 1 0
0 1 0
0 1 0
0 1 0
0.411734 1 0
1 1 0
1 1 0
0 1 0
0 1 0
0 1 0
0 1 0
0 1 0
0 1 0
0 1 0
0.737606 1 0
1 1 0
0 0 0.766705
0 0 0.766445
0 0 0.765743
0.168963 0 0.763867
0.496025 0 0.758846
0.907408 0 0.745281
1 0 0.707698
1 0 0.59501
1 0 0
0 0 0.76643
0 0 0.766171
0 0 0.765469
0.158129 0 0.763592
0.492012 0 0.758572
0.905303 0 0.744991
1 0 0.707393
1 0 0.594659
1 0 0
0 0 0.765682
0 0 0.765423
0 0 0.764721
0.126009 0 0.762844
0.481163 0 0.757824
0.899672 0 0.744228
1 0 0.706584
1 0 0.593683
1 0 0
0 0.166323 0.763714
0 0.162814 0.763455
0 0.15317 0.762737
0.0105135 0.124895 0.760861
0.450904 0.0253147 0.755825
0.884443 0 0.742199
1 0 0.704433
1 0 0.591089
1 0 0
0 0.432059 0.758419
0 0.430564 0.758144
0 0.426566 0.757443
0 0.415686 0.75555
0.357961 0.385183 0.750469
0.842329 0.289204 0.736721
1 0 0.69865
1 0 0.584115
1 0 0
0 0.784283 0.744076
0 0.783475 0.743801
0 0.781338 0.743084
0 0.775601 0.741146
0 0.760052 0.735958
0.716731 0.716793 0.72192
1 0.584649 0.682948
1 0 0.565042
1 0 0
0 1 0.704265
0 1 0.703975
0 1 0.703212
0 1 0.701152
0 1 0.695644
0.000289921 1 0.68072
1 1 0.639063
1 1 0.510567
1 0 0
0 1 0.583902
0 1 0.583551
0 1 0.58262
0 1 0.580102
0 1 0.573373
0 1 0.554955
0.349096 1 0.502434
1 1 0.322667
1 1 0
0 1 0
0 1 0
0 1 0
0 1 0
0 1 0
0 1 0
0 1 0
0.705119 1 0
1 1 0
0 0 1
0 0 1
0 0 1
0 0 1
0.344549 0 1
0.836866 0 1
1 0 1
1 0 1
1 0 0.987457
0 0 1
0 0 1
0 0 1
0 0 1
0.338781 0 1
0.834562 0 1
1 0 1
1 0 1
1 0 0.987243
0 0 1
0 0 1
0 0 1
0 0 1
0.322942 0 1
0.828412 0 1
1 0 1
1 0 1
1 0 0.986679
0 0 1
0 0 1
0 0 1
0 0 1
0.276631 0 1
0.811704 0 1
1 0 1
1 0 1
1 0 0.985183
0 0.336812 1
0 0.33492 1
0 0.329793 1
0 0.31574 1
0.0883803 0.275044 1
0.765209 0.122316 1
1 0 1
1 0 1
1 0 0.981186
0 0.737133 1
0 0.736278 1
0 0.733989 1
0 0.727855 1
0 0.711177 1
0.622889 0.664485 1
1 0.518364 1
1 0 1
1 0 0.970413
0 1 1
0 1 1
0 1 1
0 1 1
0 1 1
0 1 1
1 1 1
1 0.971145 1
1 0 0.941009
0 1 1
0 1 1
0 1 1
0 1 1
0 1 1
0 1 1
0.0610208 1 1
1 1 1
1 1 0.857069
0 1 0.970291
0 1 0.970092
0 1 0.969558
0 1 0.968109
0 1 0.964248
0 1 0.953841
0 1 0.92546
0.609354 1 0.844541
1 1 0.569299
0 0 1
0 0 1
0 0 1
0 0 1
0 0 1
0.605676 0 1
1 0 1
1 0 1
1 0 1
0 0 1
0 0 1
0 0 1
0 0 1
0 0 1
0.602426 0 1
1 0 1
1 0 1
1 0 1
0 0 1
0 0 1
0 0 1
0 0 1
0 0 1
0.593652 0 1
1 0 1
1 0 1
1 0 1
0 0 1
0 0 1
0 0 1
0 0 1
0 0 1
0.569543 0 1
1 0 1
1 0 1
1 0 1
0 0 1
0 0 1
0 0 1
0 0 1
0 0 1
0.499336 0 1
1 0 1
1 0 1
1 0 1
0 0.591745 1
0 0.590661 1
0 0.587762 1
0 0.579965 1
0 0.558602 1
0.22388 0.496956 1
1 0.271351 1
1 0 1
1 0 1
0 1 1
0 1 1
0 1 1
0 1 1
0 1 1
0 1 1
1 1 1
1 0.868955 1
1 0 1
0 1 1
0 1 1
0 1 1
0 1 1
0 1 1
0 1 1
0 1 1
1 1 1
1 1 1
0 1 1
0 1 1
0 1 1
0 1 1
0 1 1
0 1 1
0 1 1
0.185351 1 1
1 1 1
0 0 1
0 0 1
0 0 1
0 0 1
0 0 1
0 0 1
1 0 1
1 0 1
1 0 1
0 0 1
0 0 1
0 0 1
0 0 1
0 0 1
0 0 1
1 0 1
1 0 1
1 0 1
0 0 1
0 0 1
0 0 1
0 0 1
0 0 1
0 0 1
0.998596 0 1
1 0 1
1 0 1
0 0 1
0 0 1
0 0 1
0 0 1
0 0 1
0 0 1
0.985046 0 1
1 0 1
1 0 1
0 0 1
0 0 1
0 0 1
0 0 1
0 0 1
0 0 1
0.94786 0 1
1 0 1
1 0 1
0 0 1
0 0 1
0 0 1
0 0 1
0 0 1
0 0 1
0.839673 0 1
1 0 1
1 0 1
0 0.982727 1
0 0.982101 1
0 0.980423 1
0 0.975967 1
0 0.963928 1
0 0.930968 1
0.420081 0.835996 1
1 0.491386 1
1 0 1
0 1 1
0 1 1
0 1 1
0 1 1
0 1 1
0 1 1
0 1 1
1 1 1
1 1 1
0 1 1
0 1 1
0 1 1
0 1 1
0 1 1
0 1 1
0 1 1
0 1 1
1 1 1
