Encoder/Shutter Encoder 17.6 Windows 64bits/LUTs/Mavic-Pro-D-LOG-to-sRGB-Enhanced.cube
TITLE "Generate by Resolve"
LUT_3D_SIZE 5
0 0 0
0.329763 0 0
0.907561 0 0
1 0 0
1 0 0
0 0.257542 0
0.233616 0.22208 0
0.894499 0 0
1 0 0
1 0 0
0 0.803952 0
0 0.799802 0
0.769131 0.753964 0
1 0 0
1 0 0
0 1 0
0 1 0
0 1 0
1 1 0
1 0 0
0 1 0
0 1 0
0 1 0
0 1 0
1 1 0
0 0 0.216358
0.302327 0 0.217716
0.908034 0 0.125017
1 0 0
1 0 0
0 0.245106 0.222766
0.207935 0.207996 0.209873
0.892103 0 0.109209
1 0 0
1 0 0
0 0.80206 0.117342
0 0.796033 0.103853
0.763653 0.750423 0
1 0 0
1 0 0
0 1 0
0 1 0
0 1 0
1 1 0
1 0 0
0 1 0
0 1 0
0 1 0
0 1 0
1 1 0
0 0 0.773159
0.118502 0 0.790036
0.888304 0 0.77763
1 0 0.601541
1 0 0
0 0.131518 0.801053
0 0.0822919 0.797345
0.870756 0 0.770703
1 0 0.593988
1 0 0
0 0.786374 0.75697
0 0.780148 0.754498
0.731975 0.732082 0.735622
1 0 0.524163
1 0 0
0 1 0.486244
0 1 0.485237
0 1 0.495171
1 1 0.337469
1 0 0
0 1 0
0 1 0
0 1 0
0 1 0
1 1 0
0 0 1
0 0 1
0.66363 0 1
1 0 1
1 0 1
0 0 1
0 0 1
0.628412 0 1
1 0 1
1 0 1
0 0.636728 1
0 0.626261 1
0.212985 0.542336 1
1 0 1
1 0 1
0 1 1
0 1 1
0 1 1
1 1 1
1 0 1
0 1 1
0 1 1
0 1 1
0 1 1
1 1 0.969329
0 0 1
0 0 1
0 0 1
1 0 1
1 0 1
0 0 1
0 0 1
0 0 1
1 0 1
1 0 1
0 0 1
0 0 1
0 0 1
1 0 1
1 0 1
0 1 1
0 1 1
0 1 1
0.774716 1 1
1 0 1
0 1 1
0 1 1
0 1 1
0 1 1
1 1 1
