Encoder/Shutter Encoder 17.6 Windows 64bits/LUTs/Mavic-Pro-LOG-to-709.cube
TITLE "Generate by Resolve"
LUT_3D_SIZE 5
0 0 0
0.149783 0 0
0.567163 0 0
1 0 0
1 0 0
0 0.113649 0
0.101717 0.0960555 0
0.554253 0 0
1 0 0
1 0 0
0 0.479942 0
0 0.474998 0
0.451545 0.438193 0
1 0 0
1 0 0
0 1 0
0 1 0
0 1 0
1 1 0
1 0 0
0 1 0
0 1 0
0 1 0
0 1 0
1 1 0
0 0 0.101472
0.139422 0 0.095613
0.564111 0 0.0495003
1 0 0
1 0 0
0 0.106462 0.0952773
0.0879988 0.088014 0.089189
0.551141 0 0.0426032
1 0 0
1 0 0
0 0.477867 0.0465553
0 0.472892 0.0400244
0.4477 0.43592 0
1 0 0
1 0 0
0 1 0
0 1 0
0 1 0
1 1 0
1 0 0
0 1 0
0 1 0
0 1 0
0 1 0
1 1 0
0 0 0.451438
0.0442664 0 0.449775
0.541955 0 0.437659
1 0 0.33933
1 0 0
0 0.0469978 0.449668
0 0.026566 0.44799
0.52842 0 0.435828
1 0 0.336996
1 0 0
0 0.462806 0.436866
0 0.457664 0.435142
0.419318 0.419348 0.422614
1 0 0.319875
1 0 0
0 1 0.332036
0 1 0.329778
0 1 0.313222
1 1 0.157733
1 0 0
0 1 0
0 1 0
0 1 0
0 1 0
1 1 0
0 0 1
0 0 1
0.344549 0 1
1 0 1
1 0 0.987457
0 0 1
0 0 1
0.322942 0 1
1 0 1
1 0 0.986679
0 0.336812 1
0 0.329793 1
0.0883803 0.275044 1
1 0 1
1 0 0.981186
0 1 1
0 1 1
0 1 1
1 1 1
1 0 0.941009
0 1 0.970291
0 1 0.969558
0 1 0.964248
0 1 0.92546
1 1 0.569299
0 0 1
0 0 1
0 0 1
1 0 1
1 0 1
0 0 1
0 0 1
0 0 1
0.998596 0 1
1 0 1
0 0 1
0 0 1
0 0 1
0.94786 0 1
1 0 1
0 0.982727 1
0 0.980423 1
0 0.963928 1
0.420081 0.835996 1
1 0 1
0 1 1
0 1 1
0 1 1
0 1 1
1 1 1
