Encoder/Shutter Encoder 17.6 Windows 64bits/LUTs/Mavic-Pro-LOG-to-709.cube
TITLE "Generate by Resolve"
LUT_3D_SIZE 33
0 0 0
0 0 0
0.000396735 0 0
0.0140841 0 0
0.0315862 0 0
0.0539559 0 0
0.0827802 0 0
0.115373 0 0
0.149783 0 0
0.186709 0 0
0.226749 0 0
0.270481 0 0
0.318532 0 0
0.371511 0 0
0.430106 0 0
0.495048 0 0
0.567163 0 0
0.647334 0 0
0.736553 0 0
0.83592 0 0
0.946654 0 0
1 0 0
1 0 0
1 0 0
1 0 0
1 0 0
1 0 0
1 0 0
1 0 0
1 0 0
1 0 0
1 0 0
1 0 0
0 0 0
0 0 0
0 0 0
0.0112306 0 0
0.0287327 0 0
0.0511025 0 0
0.0796826 0 0
0.113039 0 0
0.147845 0 0
0.185077 0 0
0.22536 0 0
0.269291 0 0
0.31751 0 0
0.370626 0 0
0.429328 0 0
0.494377 0 0
0.566583 0 0
0.64683 0 0
0.73611 0 0
0.835538 0 0
0.946319 0 0
1 0 0
1 0 0
1 0 0
1 0 0
1 0 0
1 0 0
1 0 0
1 0 0
1 0 0
1 0 0
1 0 0
1 0 0
0 0 0
0 0 0
0 0 0
0.00758373 0 0
0.0250706 0 0
0.0474403 0 0
0.0760357 0 0
0.110018 0 0
0.145342 0 0
0.182971 0 0
0.22356 0 0
0.267765 0 0
0.316182 0 0
0.369482 0 0
0.428351 0 0
0.493523 0 0
0.565835 0 0
0.646174 0 0
0.735546 0 0
0.83505 0 0
0.945891 0 0
1 0 0
1 0 0
1 0 0
1 0 0
1 0 0
1 0 0
1 0 0
1 0 0
1 0 0
1 0 0
1 0 0
1 0 0
0 0.00541695 0
0 0.00448615 0
0 0.00329595 0
0.00291447 0.00178531 0
0.0204013 0 0
0.042771 0 0
0.0713664 0 0
0.106065 0 0
0.142092 0 0
0.18024 0 0
0.221256 0 0
0.265797 0 0
0.314504 0 0
0.368032 0 0
0.427085 0 0
0.492439 0 0
0.564889 0 0
0.64535 0 0
0.734829 0 0
0.834424 0 0
0.945342 0 0
1 0 0
1 0 0
1 0 0
1 0 0
1 0 0
1 0 0
1 0 0
1 0 0
1 0 0
1 0 0
1 0 0
1 0 0
0 0.0182803 0
0 0.0173495 0
0 0.0161593 0
0 0.0146487 0
0.014435 0.0127108 0
0.0368048 0.0102388 0
0.0653849 0.00706493 0
0.100893 0.00302129 0
0.137865 0 0
0.176715 0 0
0.21828 0 0
0.263264 0 0
0.312322 0 0
0.366155 0 0
0.425467 0 0
0.491035 0 0
0.563668 0 0
0.644297 0 0
0.733913 0 0
0.833616 0 0
0.94464 0 0
1 0 0
1 0 0
1 0 0
1 0 0
1 0 0
1 0 0
1 0 0
1 0 0
1 0 0
1 0 0
1 0 0
1 0 0
0 0.0347295 0
0 0.0337987 0
0 0.0326085 0
0 0.0310979 0
0.00680552 0.02916 0
0.0291752 0.026688 0
0.0577707 0.0235142 0
0.0940108 0.0194705 0
0.132311 0.0142977 0
0.172137 0.00769055 0
0.214435 0 0
0.259983 0 0
0.309529 0 0
0.36376 0 0
0.423392 0 0
0.489235 0 0
0.562112 0 0
0.642939 0 0
0.732738 0 0
0.832593 0 0
0.943755 0 0
1 0 0
1 0 0
1 0 0
1 0 0
1 0 0
1 0 0
1 0 0
1 0 0
1 0 0
1 0 0
1 0 0
1 0 0
0 0.0557565 0
0 0.0548257 0
0 0.0536355 0
0 0.0521248 0
0 0.0501869 0
0.0194247 0.0476997 0
0.0480201 0.0445411 0
0.0847639 0.0404974 0
0.124971 0.0353246 0
0.166125 0.0287022 0
0.209415 0.020264 0
0.255756 0.00946059 0
0.305913 0 0
0.360662 0 0
0.420737 0 0
0.486931 0 0
0.560113 0 0
0.641215 0 0
0.731228 0 0
0.831281 0 0
0.942611 0 0
1 0 0
1 0 0
1 0 0
1 0 0
1 0 0
1 0 0
1 0 0
1 0 0
1 0 0
1 0 0
1 0 0
1 0 0
0 0.0828717 0
0 0.0819409 0
0 0.0805066 0
0 0.078996 0
0 0.0770581 0
0.00697337 0.0745708 0
0.0355535 0.0714122 0
0.0720989 0.0673686 0
0.115145 0.0621958 0
0.15819 0.0555734 0
0.202853 0.0471199 0
0.250248 0.0363317 0
0.301244 0.0225223 0
0.356664 0.00488289 0
0.417304 0 0
0.48397 0 0
0.557549 0 0
0.638987 0 0
0.72929 0 0
0.829602 0 0
0.941146 0 0
1 0 0
1 0 0
1 0 0
1 0 0
1 0 0
1 0 0
1 0 0
1 0 0
1 0 0
1 0 0
1 0 0
1 0 0
0 0.113649 0
0 0.112902 0
0 0.111925 0
0 0.110658 0
0 0.109041 0
0 0.106935 0
0.0196384 0.104219 0
0.0561685 0.100694 0
0.101717 0.0960555 0
0.147601 0.0899214 0
0.194217 0.0817121 0
0.243046 0.0706645 0
0.295171 0.0568704 0
0.351492 0.0392309 0
0.412863 0.0166781 0
0.480156 0 0
0.554253 0 0
0.636133 0 0
0.726818 0 0
0.827451 0 0
0.939269 0 0
1 0 0
1 0 0
1 0 0
1 0 0
1 0 0
1 0 0
1 0 0
1 0 0
1 0 0
1 0 0
1 0 0
1 0 0
0 0.146441 0
0 0.1458 0
0 0.144991 0
0 0.143938 0
0 0.14258 0
0 0.140841 0
0 0.138598 0
0.0358129 0.135683 0
0.0827497 0.131884 0
0.133196 0.126925 0
0.182696 0.120394 0
0.233585 0.111681 0
0.287251 0.099855 0
0.344778 0.0833448 0
0.407141 0.0605631 0
0.475242 0.031754 0
0.550011 0 0
0.632471 0 0
0.723644 0 0
0.824689 0 0
0.936873 0 0
1 0 0
1 0 0
1 0 0
1 0 0
1 0 0
1 0 0
1 0 0
1 0 0
1 0 0
1 0 0
1 0 0
1 0 0
0 0.181811 0
0 0.181277 0
0 0.180575 0
0 0.17969 0
0 0.178546 0
0 0.177081 0
0 0.175189 0
0.00981155 0.172747 0
0.0565042 0.169589 0
0.113008 0.165484 0
0.167071 0.160128 0
0.220966 0.153063 0
0.276814 0.143679 0
0.336019 0.130999 0
0.399695 0.113405 0
0.468879 0.087953 0
0.544549 0.0510109 0
0.627741 0.00393683 0
0.719554 0 0
0.821134 0 0
0.933791 0 0
1 0 0
1 0 0
1 0 0
1 0 0
1 0 0
1 0 0
1 0 0
1 0 0
1 0 0
1 0 0
1 0 0
1 0 0
0 0.220325 0
0 0.219852 0
0 0.219272 0
0 0.218509 0
0 0.217533 0
0 0.216281 0
0 0.214679 0
0 0.212604 0
0.0232548 0.209949 0
0.0831769 0.206485 0
0.145312 0.202014 0
0.203906 0.19617 0
0.262928 0.188479 0
0.324483 0.178271 0
0.389975 0.164523 0
0.460609 0.145541 0
0.537469 0.118303 0
0.621653 0.075639 0
0.71429 0.0154726 0
0.816587 0 0
0.929839 0 0
1 0 0
1 0 0
1 0 0
1 0 0
1 0 0
1 0 0
1 0 0
1 0 0
1 0 0
1 0 0
1 0 0
1 0 0
0 0.262501 0
0 0.262104 0
0 0.261601 0
0 0.260945 0
0 0.260105 0
0 0.259037 0
0 0.257664 0
0 0.255894 0
0 0.25362 0
0.0404517 0.25069 0
0.113466 0.246906 0
0.180209 0.241993 0
0.24419 0.235569 0
0.309163 0.227146 0
0.377218 0.215976 0
0.449836 0.200946 0
0.528283 0.180301 0
0.613779 0.150805 0
0.707515 0.105394 0
0.810727 0.0302129 0
0.924758 0 0
1 0 0
1 0 0
1 0 0
1 0 0
1 0 0
1 0 0
1 0 0
1 0 0
1 0 0
1 0 0
1 0 0
1 0 0
0 0.308919 0
0 0.308583 0
0 0.308141 0
0 0.307576 0
0 0.306859 0
0 0.305943 0
0 0.304753 0
0 0.303243 0
0 0.301289 0
0 0.298787 0
0.0624247 0.295552 0
0.145785 0.291386 0
0.21825 0.285954 0
0.288502 0.278889 0
0.360265 0.269612 0
0.43566 0.257328 0
0.516304 0.240833 0
0.603555 0.218189 0
0.698741 0.186023 0
0.803174 0.136934 0
0.918227 0.0490425 0
1 0 0
1 0 0
1 0 0
1 0 0
1 0 0
1 0 0
1 0 0
1 0 0
1 0 0
1 0 0
1 0 0
1 0 0
0 0.360189 0
0 0.359899 0
0 0.359518 0
0 0.35903 0
0 0.358404 0
0 0.35761 0
0 0.356603 0
0 0.355291 0
0 0.353613 0
0 0.351461 0
0 0.348684 0
0.0904707 0.345113 0
0.180728 0.34049 0
0.259953 0.334493 0
0.337407 0.32668 0
0.416861 0.316442 0
0.500557 0.302876 0
0.590219 0.284672 0
0.687358 0.25977 0
0.793393 0.22446 0
0.909804 0.170947 0
1 0.0731212 0
1 0 0
1 0 0
1 0 0
1 0 0
1 0 0
1 0 0
1 0 0
1 0 0
1 0 0
1 0 0
1 0 0
0 0.416968 0
0 0.416709 0
0 0.416373 0
0 0.415961 0
0 0.415412 0
0 0.414725 0
0 0.41384 0
0 0.412711 0
0 0.411261 0
0 0.4094 0
0 0.407019 0
0.00178531 0.403937 0
0.121202 0.399985 0
0.218814 0.394858 0
0.305867 0.38822 0
0.391531 0.379568 0
0.479667 0.368215 0
0.572702 0.353201 0
0.672511 0.333074 0
0.780713 0.305562 0
0.898909 0.266651 0
1 0.20798 0
1 0.102617 0
1 0 0
1 0 0
1 0 0
1 0 0
1 0 0
1 0 0
1 0 0
1 0 0
1 0 0
1 0 0
0 0.479942 0
0 0.479713 0
0 0.479423 0
0 0.479072 0
0 0.478599 0
0 0.478004 0
0 0.477241 0
0 0.476249 0
0 0.474998 0
0 0.473381 0
0 0.471321 0
0 0.468666 0
0.0130007 0.465248 0
0.154131 0.460853 0
0.260578 0.455161 0
0.356619 0.447791 0
0.451545 0.438193 0
0.549477 0.425605 0
0.65301 0.408957 0
0.764157 0.386648 0
0.884764 0.356176 0
1 0.313161 0
1 0.248539 0
1 0.133944 0
1 0 0
1 0 0
1 0 0
1 0 0
1 0 0
1 0 0
1 0 0
1 0 0
1 0 0
0 0.549905 0
0 0.549722 0
0 0.549462 0
0 0.549157 0
0 0.548745 0
0 0.548226 0
0 0.547555 0
0 0.5467 0
0 0.545617 0
0 0.544228 0
0 0.542428 0
0 0.540139 0
0 0.537179 0
0.0273442 0.533379 0
0.189792 0.528496 0
0.306569 0.522179 0
0.412818 0.51397 0
0.518212 0.503304 0
0.627146 0.489311 0
0.742428 0.470817 0
0.866316 0.446052 0
1 0.412253 0
1 0.364584 0
1 0.293172 0
1 0.167712 0
1 0 0
1 0 0
1 0 0
1 0 0
1 0 0
1 0 0
1 0 0
1 0 0
0 0.627741 0
0 0.627573 0
0 0.627359 0
0 0.627085 0
0 0.626719 0
0 0.626276 0
0 0.625696 0
0 0.624949 0
0 0.624002 0
0 0.622797 0
0 0.621241 0
0 0.619242 0
0 0.616693 0
0 0.613413 0
0.0456703 0.609186 0
0.228733 0.603738 0
0.357382 0.596704 0
0.475181 0.587579 0
0.59234 0.575708 0
0.713619 0.560143 0
0.842084 0.539574 0
0.980209 0.512047 0
1 0.474479 0
1 0.421576 0
1 0.342473 0
1 0.20444 0
1 0 0
1 0 0
1 0 0
1 0 0
1 0 0
1 0 0
1 0 0
0 0.714397 0
0 0.714244 0
0 0.714061 0
0 0.713817 0
0 0.713512 0
0 0.713115 0
0 0.712612 0
0 0.711971 0
0 0.711147 0
0 0.710079 0
0 0.708736 0
0 0.706996 0
0 0.704784 0
0 0.70193 0
0 0.698268 0
0.0690929 0.693568 0
0.271473 0.68751 0
0.413657 0.679667 0
0.544488 0.66952 0
0.674861 0.656291 0
0.809979 0.638956 0
0.953201 0.616068 0
1 0.585428 0
1 0.543648 0
1 0.48484 0
1 0.397055 0
1 0.244663 0
1 0 0
1 0 0
1 0 0
1 0 0
1 0 0
1 0 0
0 0.810925 0
0 0.810803 0
0 0.810636 0
0 0.810422 0
0 0.810147 0
0 0.809812 0
0 0.809369 0
0 0.808804 0
0 0.808087 0
0 0.807172 0
0 0.805997 0
0 0.804486 0
0 0.802563 0
0 0.800092 0
0 0.796918 0
0 0.792828 0
0.0983139 0.787594 0
0.318593 0.780835 0
0.476112 0.772107 0
0.621592 0.760784 0
0.766796 0.746044 0
0.917388 0.726741 0
1 0.701244 0
1 0.667124 0
1 0.6206 0
1 0.555169 0
1 0.457618 0
1 0.288899 0
1 0 0
1 0 0
1 0 0
1 0 0
1 0 0
0 0.918532 0
0 0.91841 0
0 0.918273 0
0 0.91809 0
0 0.917861 0
0 0.917556 0
0 0.917174 0
0 0.916686 0
0 0.91606 0
0 0.915251 0
0 0.914229 0
0 0.912917 0
0 0.911238 0
0 0.909087 0
0 0.906325 0
0 0.902785 0
0 0.898238 0
0.129564 0.892393 0
0.370687 0.884855 0
0.545525 0.87512 0
0.707439 0.862516 0
0.869245 0.846082 0
1 0.824567 0
1 0.796139 0
1 0.758114 0
1 0.706294 0
1 0.633433 0
1 0.524895 0
1 0.337743 0
1 0 0
1 0 0
1 0 0
1 0 0
0 1 0
0 1 0
0 1 0
0 1 0
0 1 0
0 1 0
0 1 0
0 1 0
0 1 0
0 1 0
0 1 0
0 1 0
0 1 0
0 1 0
0 1 0
0 1 0
0 1 0
0 1 0
0.163149 1 0
0.428428 1 0
0.622751 0.990005 0
0.803082 0.975937 0
0.983474 0.957626 0
1 0.933623 0
1 0.90193 0
1 0.859541 0
1 0.80177 0
1 0.720577 0
1 0.599725 0
1 0.391821 0
1 0 0
1 0 0
1 0 0
0 1 0
0 1 0
0 1 0
0 1 0
0 1 0
0 1 0
0 1 0
0 1 0
0 1 0
0 1 0
0 1 0
0 1 0
0 1 0
0 1 0
0 1 0
0 1 0
0 1 0
0 1 0
0 1 0
0.199619 1 0
0.492515 1 0
0.708721 1 0
0.909697 1 0
1 1 0
1 1 0
1 1 0
1 0.972625 0
1 0.908202 0
1 0.8177 0
1 0.68304 0
1 0.451789 0
1 0 0
1 0 0
0 1 0
0 1 0
0 1 0
0 1 0
0 1 0
0 1 0
0 1 0
0 1 0
0 1 0
0 1 0
0 1 0
0 1 0
0 1 0
0 1 0
0 1 0
0 1 0
0 1 0
0 1 0
0 1 0
0 1 0
0.23949 1 0
0.56376 1 0
0.804517 1 0
1 1 0
1 1 0
1 1 0
1 1 0
1 1 0
1 1 0
1 0.925963 0
1 0.77586 0
1 0.518425 0
1 0 0
0 1 0
0 1 0
0 1 0
0 1 0
0 1 0
0 1 0
0 1 0
0 1 0
0 1 0
0 1 0
0 1 0
0 1 0
0 1 0
0 1 0
0 1 0
0 1 0
0 1 0
0 1 0
0 1 0
0 1 0
0 1 0
0.28333 1 0
0.643046 1 0
0.911315 1 0
1 1 0
1 1 0
1 1 0
1 1 0
1 1 0
1 1 0
1 1 0
1 0.879316 0
1 0.592523 0
0 1 0
0 1 0
0 1 0
0 1 0
0 1 0
0 1 0
0 1 0
0 1 0
0 1 0
0 1 0
0 1 0
0 1 0
0 1 0
0 1 0
0 1 0
0 1 0
0 1 0
0 1 0
0 1 0
0 1 0
0 1 0
0 1 0
0.331685 1 0
0.731334 1 0
1 1 0
1 1 0
1 1 0
1 1 0
1 1 0
1 1 0
1 1 0
1 1 0
1 0.99469 0
0 1 0
0 1 0
0 1 0
0 1 0
0 1 0
0 1 0
0 1 0
0 1 0
0 1 0
