Encoder/Shutter Encoder 17.6 Windows 64bits/LUTs/Mavic-Pro-D-LOG-to-sRGB-Enhanced.cube
TITLE "Generate by Resolve"
LUT_3D_SIZE 33
0 0 0
0 0 0
0.000869764 0 0
0.039292 0 0
0.0884108 0 0
0.140459 0 0
0.199268 0 0
0.26183 0 0
0.329763 0 0
0.402258 0 0
0.476768 0 0
0.552316 0 0
0.624949 0 0
0.698375 0 0
0.770184 0 0
0.839734 0 0
0.907561 0 0
0.965637 0 0
1 0 0
1 0 0
1 0 0
1 0 0
1 0 0
1 0 0
1 0 0
1 0 0
1 0 0
1 0 0
1 0 0
1 0 0
1 0 0
1 0 0
1 0 0
0 0 0
0 0 0
0 0 0
0.03122 0 0
0.0804303 0 0
0.134188 0 0
0.194034 0 0
0.257282 0 0
0.325475 0 0
0.39881 0 0
0.473838 0 0
0.550027 0 0
0.623117 0 0
0.696818 0 0
0.769085 0 0
0.838911 0 0
0.906935 0 0
0.96524 0 0
1 0 0
1 0 0
1 0 0
1 0 0
1 0 0
1 0 0
1 0 0
1 0 0
1 0 0
1 0 0
1 0 0
1 0 0
1 0 0
1 0 0
1 0 0
0 0 0
0 0 0
0 0 0
0.0211032 0 0
0.070222 0 0
0.126085 0 0
0.187213 0 0
0.251347 0 0
0.320089 0 0
0.394339 0 0
0.470146 0 0
0.54699 0 0
0.620874 0 0
0.694865 0 0
0.767727 0 0
0.837888 0 0
0.906126 0 0
0.964782 0 0
1 0 0
1 0 0
1 0 0
1 0 0
1 0 0
1 0 0
1 0 0
1 0 0
1 0 0
1 0 0
1 0 0
1 0 0
1 0 0
1 0 0
1 0 0
0 0.0144961 0
0 0.012253 0
0 0.0090486 0
0.00807202 0.00476081 0
0.0570993 0 0
0.115633 0 0
0.178424 0 0
0.243809 0 0
0.313298 0 0
0.388708 0 0
0.465461 0 0
0.543191 0 0
0.618006 0 0
0.692439 0 0
0.766003 0 0
0.836576 0 0
0.905119 0 0
0.964187 0 0
1 0 0
1 0 0
1 0 0
1 0 0
1 0 0
1 0 0
1 0 0
1 0 0
1 0 0
1 0 0
1 0 0
1 0 0
1 0 0
1 0 0
1 0 0
0 0.0504768 0
0 0.0484321 0
0 0.0452277 0
0 0.0409552 0
0.0403601 0.0354009 0
0.102235 0.0285039 0
0.165179 0.0195468 0
0.233112 0.00827039 0
0.304631 0 0
0.381231 0 0
0.459525 0 0
0.538476 0 0
0.614496 0 0
0.689433 0 0
0.763836 0 0
0.834958 0 0
0.903792 0 0
0.963409 0 0
0.999893 0 0
1 0 0
1 0 0
1 0 0
1 0 0
1 0 0
1 0 0
1 0 0
1 0 0
1 0 0
1 0 0
1 0 0
1 0 0
1 0 0
1 0 0
0 0.0970626 0
0 0.0948348 0
0 0.0914321 0
0 0.0870527 0
0.0190585 0.0813153 0
0.0815137 0.074403 0
0.148272 0.0654612 0
0.21915 0.054078 0
0.293294 0.0396887 0
0.371756 0.02121 0
0.451926 0 0
0.53254 0 0
0.61001 0 0
0.685756 0 0
0.76109 0 0
0.832761 0 0
0.902144 0 0
0.962432 0 0
0.999649 0 0
1 0 0
1 0 0
1 0 0
1 0 0
1 0 0
1 0 0
1 0 0
1 0 0
1 0 0
1 0 0
1 0 0
1 0 0
1 0 0
1 0 0
0 0.144442 0
0 0.142382 0
0 0.139925 0
0 0.136568 0
0 0.132204 0
0.0546578 0.126696 0
0.127459 0.119661 0
0.20264 0.110521 0
0.279759 0.0986191 0
0.361608 0.0800488 0
0.444358 0.0563211 0
0.527062 0.0261692 0
0.606409 0 0
0.683207 0 0
0.759426 0 0
0.831601 0 0
0.901473 0 0
0.962097 0 0
0.999588 0 0
1 0 0
1 0 0
1 0 0
1 0 0
1 0 0
1 0 0
1 0 0
1 0 0
1 0 0
1 0 0
1 0 0
1 0 0
1 0 0
1 0 0
0 0.199329 0
0 0.197711 0
0 0.195529 0
0 0.192691 0
0 0.188998 0
0.0197452 0.184283 0
0.0995956 0.178302 0
0.179568 0.169223 0
0.260182 0.157671 0
0.345327 0.142916 0
0.431266 0.124178 0
0.516258 0.100145 0
0.598474 0.0619516 0
0.676799 0.0134279 0
0.754467 0 0
0.827344 0 0
0.898405 0 0
0.95993 0 0
0.999115 0 0
1 0 0
1 0 0
1 0 0
1 0 0
1 0 0
1 0 0
1 0 0
1 0 0
1 0 0
1 0 0
1 0 0
1 0 0
1 0 0
1 0 0
0 0.257542 0
0 0.256321 0
0 0.254429 0
0 0.251942 0
0 0.248692 0
0 0.244617 0
0.0549477 0.239033 0
0.144366 0.231556 0
0.233616 0.22208 0
0.322255 0.209995 0
0.412985 0.194598 0
0.50248 0.174044 0
0.587366 0.143755 0
0.668177 0.105257 0
0.748211 0.0452277 0
0.821958 0 0
0.894499 0 0
0.957061 0 0
0.997528 0 0
1 0 0
1 0 0
1 0 0
1 0 0
1 0 0
1 0 0
1 0 0
1 0 0
1 0 0
1 0 0
1 0 0
1 0 0
1 0 0
1 0 0
0 0.319982 0
0 0.318929 0
0 0.317296 0
0 0.315084 0
0 0.312184 0
0 0.308507 0
0 0.303807 0
0.0992142 0.297871 0
0.196475 0.289906 0
0.292332 0.279591 0
0.389242 0.266484 0
0.483223 0.249714 0
0.572976 0.226078 0
0.656626 0.19472 0
0.739651 0.149493 0
0.815091 0.0849165 0
0.889097 0 0
0.953368 0 0
0.995514 0 0
1 0 0
1 0 0
1 0 0
1 0 0
1 0 0
1 0 0
1 0 0
1 0 0
1 0 0
1 0 0
1 0 0
1 0 0
1 0 0
1 0 0
0 0.387747 0
0 0.386923 0
0 0.385504 0
0 0.383597 0
0 0.381109 0
0 0.377951 0
0 0.373953 0
0.0277256 0.368933 0
0.143145 0.36257 0
0.252155 0.354314 0
0.357122 0.343297 0
0.458106 0.328084 0
0.554482 0.308858 0
0.642435 0.283085 0
0.728206 0.249165 0
0.806668 0.200076 0
0.882445 0.12723 0
0.949508 0.0108034 0
0.993652 0 0
1 0 0
1 0 0
1 0 0
1 0 0
1 0 0
1 0 0
1 0 0
1 0 0
1 0 0
1 0 0
1 0 0
1 0 0
1 0 0
1 0 0
0 0.457237 0
0 0.456611 0
0 0.455528 0
0 0.454032 0
0 0.452079 0
0 0.449577 0
0 0.446372 0
0 0.442374 0
0.0639048 0.437278 0
0.194537 0.430533 0
0.311849 0.421332 0
0.424659 0.4094 0
0.528939 0.394141 0
0.62327 0.373419 0
0.713008 0.34638 0
0.795392 0.307424 0
0.874067 0.254429 0
0.944244 0.175875 0
0.991333 0.0404669 0
1 0 0
1 0 0
1 0 0
1 0 0
1 0 0
1 0 0
1 0 0
1 0 0
1 0 0
1 0 0
1 0 0
1 0 0
1 0 0
1 0 0
0 0.528603 0
0 0.528099 0
0 0.527337 0
0 0.526192 0
0 0.526772 0
0 0.524804 0
0 0.522225 0
0 0.518883 0
0 0.514641 0
0.107958 0.509224 0
0.25069 0.502327 0
0.378775 0.492912 0
0.496361 0.480293 0
0.600778 0.464118 0
0.69482 0.442695 0
0.78294 0.413367 0
0.864439 0.372671 0
0.938582 0.314015 0
0.988495 0.227008 0
1 0.0775158 0
1 0 0
1 0 0
1 0 0
1 0 0
1 0 0
1 0 0
1 0 0
1 0 0
1 0 0
1 0 0
1 0 0
1 0 0
1 0 0
0 0.598672 0
0 0.598276 0
0 0.597711 0
0 0.596918 0
0 0.596185 0
0 0.595102 0
0 0.593515 0
0 0.591318 0
0 0.588418 0
0 0.584085 0
0.15285 0.578622 0
0.309392 0.571481 0
0.446403 0.562264 0
0.565621 0.550271 0
0.668925 0.533715 0
0.763561 0.511742 0
0.848798 0.481346 0
0.928466 0.439292 0
0.984482 0.377401 0
1 0.281971 0
1 0.118349 0
1 0 0
1 0 0
1 0 0
1 0 0
1 0 0
1 0 0
1 0 0
1 0 0
1 0 0
1 0 0
1 0 0
1 0 0
0 0.667277 0
0 0.666941 0
0 0.666484 0
0 0.665858 0
0 0.66537 0
0 0.664561 0
0 0.663417 0
0 0.661799 0
0 0.659602 0
0 0.656245 0
0 0.651972 0
0.203326 0.64654 0
0.373297 0.639643 0
0.515663 0.630106 0
0.633677 0.617792 0
0.738964 0.602228 0
0.829831 0.580179 0
0.913481 0.550439 0
0.979049 0.507332 0
1 0.44332 0
1 0.342763 0
1 0.162799 0
1 0 0
1 0 0
1 0 0
1 0 0
1 0 0
1 0 0
1 0 0
1 0 0
1 0 0
1 0 0
1 0 0
0 0.73785 0
0 0.737652 0
0 0.737331 0
0 0.736889 0
0 0.736584 0
0 0.73608 0
0 0.735317 0
0 0.734112 0
0 0.732357 0
0 0.72958 0
0 0.726024 0
0.00836194 0.721523 0
0.257496 0.715785 0
0.439887 0.708522 0
0.583978 0.698466 0
0.702281 0.685466 0
0.804334 0.669322 0
0.894972 0.647059 0
0.968139 0.616983 0
1 0.574807 0
1 0.510735 0
1 0.401511 0
1 0.176028 0
1 0 0
1 0 0
1 0 0
1 0 0
1 0 0
1 0 0
1 0 0
1 0 0
1 0 0
1 0 0
0 0.803952 0
0 0.803784 0
0 0.80354 0
0 0.803174 0
0 0.80296 0
0 0.802563 0
0 0.801953 0
0 0.801053 0
0 0.799802 0
0 0.797787 0
0 0.795209 0
0 0.791913 0
0.0374456 0.787732 0
0.315557 0.782391 0
0.507958 0.775036 0
0.650919 0.765728 0
0.769131 0.753964 0
0.86978 0.738399 0
0.952483 0.715602 0
1 0.684016 0
1 0.640223 0
1 0.571176 0
1 0.446937 0
1 0.168078 0
1 0 0
1 0 0
1 0 0
1 0 0
1 0 0
1 0 0
1 0 0
1 0 0
1 0 0
0 0.869993 0
0 0.869825 0
0 0.869627 0
0 0.869352 0
0 0.8692 0
0 0.868925 0
0 0.868467 0
0 0.867796 0
0 0.866896 0
0 0.865446 0
0 0.863584 0
0 0.861112 0
0 0.857481 0
0.0733349 0.852689 0
0.378439 0.847074 0
0.57554 0.840116 0
0.719585 0.831067 0
0.834501 0.818723 0
0.93341 0.803037 0
0.993103 0.780896 0
1 0.749996 0
1 0.702403 0
1 0.626932 0
1 0.491234 0
1 0.141848 0
1 0 0
1 0 0
1 0 0
1 0 0
1 0 0
1 0 0
1 0 0
1 0 0
0 0.933867 0
0 0.933761 0
0 0.933639 0
0 0.933471 0
0 0.933165 0
0 0.932738 0
0 0.932937 0
0 0.932158 0
0 0.931182 0
0 0.929946 0
0 0.92842 0
0 0.926482 0
0 0.92398 0
0 0.920775 0
0.0995956 0.916686 0
0.437079 0.911437 0
0.638834 0.904707 0
0.784146 0.896071 0
0.899229 0.884031 0
0.98172 0.867643 0
1 0.843961 0
1 0.811444 0
1 0.76289 0
1 0.682872 0
1 0.535058 0
1 0.11603 0
1 0 0
1 0 0
1 0 0
1 0 0
1 0 0
1 0 0
1 0 0
0 0.982345 0
0 0.982284 0
0 0.982193 0
0 0.982086 0
0 0.981949 0
0 0.981765 0
0 0.981582 0
0 0.981323 0
0 0.980972 0
0 0.98056 0
0 0.980087 0
0 0.979507 0
0 0.978775 0
0 0.977523 0
0 0.975677 0
0.0732433 0.97203 0
0.484962 0.967132 0
0.699626 0.961761 0
0.846799 0.95375 0
0.956451 0.944396 0
1 0.930205 0
1 0.906401 0
1 0.874083 0
1 0.822751 0
1 0.743954 0
1 0.592523 0
1 0.139162 0
1 0 0
1 0 0
1 0 0
1 0 0
1 0 0
1 0 0
0 1 0
0 1 0
0 1 0
0 1 0
0 1 0
0 1 0
0 1 0
0 1 0
0 1 0
0 1 0
0 1 0
0 1 0
0 1 0
0 1 0
0 1 0
0 1 0
0.017792 1 0
0.532006 1 0
0.759686 0.998474 0
0.908934 0.9935 0
0.994827 0.987213 0
1 0.979355 0
1 0.961822 0
1 0.93576 0
1 0.887984 0
1 0.810315 0
1 0.670314 0
1 0.343786 0
1 0 0
1 0 0
1 0 0
1 0 0
1 0 0
0 1 0
0 1 0
0 1 0
0 1 0
0 1 0
0 1 0
0 1 0
0 1 0
0 1 0
0 1 0
0 1 0
0 1 0
0 1 0
0 1 0
0 1 0
0 1 0
0 1 0
0 1 0
0.579416 1 0
0.81973 1 0
0.964172 1 0
1 1 0
1 1 0
1 0.999359 0
1 0.984405 0
1 0.95288 0
1 0.896162 0
1 0.84155 0
1 0.634791 0
1 0 0
1 0 0
1 0 0
1 0 0
0 1 0
0 1 0
0 1 0
0 1 0
0 1 0
0 1 0
0 1 0
0 1 0
0 1 0
0 1 0
0 1 0
0 1 0
0 1 0
0 1 0
0 1 0
0 1 0
0 1 0
0 1 0
0 1 0
0.641657 1 0
0.886839 1 0
1 1 0
1 1 0
1 1 0
1 1 0
1 1 0
1 1 0
1 0.992462 0
1 0.935042 0
1 0.729671 0
1 0 0
1 0 0
1 0 0
0 1 0
0 1 0
0 1 0
0 1 0
0 1 0
0 1 0
0 1 0
0 1 0
0 1 0
0 1 0
0 1 0
0 1 0
0 1 0
0 1 0
0 1 0
0 1 0
0 1 0
0 1 0
0 1 0
0 1 0
0.728344 1 0
0.956954 1 0
1 1 0
1 1 0
1 1 0
1 1 0
1 1 0
1 1 0
1 1 0
1 0.992615 0
1 0.815106 0
1 0 0
1 0 0
0 1 0
0 1 0
0 1 0
0 1 0
0 1 0
0 1 0
0 1 0
0 1 0
0 1 0
0 1 0
0 1 0
0 1 0
0 1 0
0 1 0
0 1 0
0 1 0
0 1 0
0 1 0
0 1 0
0 1 0
0.476707 1 0
0.886748 1 0
1 1 0
1 1 0
1 1 0
1 1 0
1 1 0
1 1 0
1 1 0
1 1 0
1 1 0
1 0.896864 0
1 0 0
0 1 0
0 1 0
0 1 0
0 1 0
0 1 0
0 1 0
0 1 0
0 1 0
0 1 0
0 1 0
0 1 0
0 1 0
0 1 0
0 1 0
0 1 0
0 1 0
0 1 0
0 1 0
0 1 0
0 1 0
0 1 0
0.573358 1 0
0.968475 1 0
1 1 0
1 1 0
1 1 0
1 1 0
1 1 0
1 1 0
1 1 0
1 1 0
1 1 0
1 0.965301 0
0 1 0
0 1 0
0 1 0
0 1 0
0 1 0
0 1 0
0 1 0
0 1 0
0 1 0
0 1 0
0 1 0
0 1 0
0 1 0
0 1 0
0 1 0
0 1 0
0 1 0
0 1 0
0 1 0
0 1 0
0 1 0
0 1 0
0.663111 1 0
1 1 0
1 1 0
1 1 0
1 1 0
1 1 0
1 1 0
1 1 0
1 1 0
1 1 0
1 1 0
0 1 0
0 1 0
0 1 0
0 1 0
0 1 0
0 1 0
0 1 0
0 1 0
0 1 0
