Encoder/Shutter Encoder 17.6 Windows 64bits/LUTs/Mavic-Pro-D-LOG-to-sRGB-Enhanced.cube
TITLE "Generate by Resolve"
LUT_3D_SIZE 9
0 0 0
0.0884108 0 0
0.329763 0 0
0.624949 0 0
0.907561 0 0
1 0 0
1 0 0
1 0 0
1 0 0
0 0.0504768 0
0.0403601 0.0354009 0
0.304631 0 0
0.614496 0 0
0.903792 0 0
1 0 0
1 0 0
1 0 0
1 0 0
0 0.257542 0
0 0.248692 0
0.233616 0.22208 0
0.587366 0.143755 0
0.894499 0 0
1 0 0
1 0 0
1 0 0
1 0 0
0 0.528603 0
0 0.526772 0
0 0.514641 0
0.496361 0.480293 0
0.864439 0.372671 0
1 0 0
1 0 0
1 0 0
1 0 0
0 0.803952 0
0 0.80296 0
0 0.799802 0
0.0374456 0.787732 0
0.769131 0.753964 0
1 0.640223 0
1 0 0
1 0 0
1 0 0
0 1 0
0 1 0
0 1 0
0 1 0
0.017792 1 0
0.994827 0.987213 0
1 0.887984 0
1 0 0
1 0 0
0 1 0
0 1 0
0 1 0
0 1 0
0 1 0
0.476707 1 0
1 1 0
1 1 0
1 0 0
0 1 0
0 1 0
0 1 0
0 1 0
0 1 0
0 1 0
0.831403 1 0
1 1 0
1 1 0
0 1 0
0 1 0
0 1 0
0 1 0
0 1 0
0 1 0
0 1 0
1 1 0
1 1 0
0 0 0.0355993
0.0605936 0 0.0240177
0.317052 0 0.0204318
0.62707 0 0
0.909987 0 0
1 0 0
1 0 0
1 0 0
1 0 0
0 0.039292 0.0304417
0.0277256 0.0277256 0.0280156
0.299779 0 0.0159457
0.6168 0 0
0.905928 0 0
1 0 0
1 0 0
1 0 0
1 0 0
0 0.254429 0.0209049
0 0.245594 0.0158541
0.227008 0.218662 0.00233463
0.585702 0.139239 0
0.894102 0 0
1 0 0
1 0 0
1 0 0
1 0 0
0 0.527703 0
0 0.523293 0
0 0.510872 0
0.490974 0.476356 0
0.861952 0.368643 0
1 0 0
1 0 0
1 0 0
1 0 0
0 0.803647 0
0 0.802106 0
0 0.79762 0
0.0272374 0.785718 0
0.766735 0.752148 0
1 0.637537 0
1 0 0
1 0 0
1 0 0
0 1 0
0 1 0
0 1 0
0 1 0
0 1 0
0.994461 0.986893 0
1 0.887205 0
1 0 0
1 0 0
0 1 0
0 1 0
0 1 0
0 1 0
0 1 0
0.473564 1 0
1 1 0
1 1 0
1 0 0
0 1 0
0 1 0
0 1 0
0 1 0
0 1 0
0 1 0
0.830198 1 0
1 1 0
1 1 0
0 1 0
0 1 0
0 1 0
0 1 0
0 1 0
0 1 0
0 1 0
1 1 0
1 1 0
0 0 0.216358
0.0345312 0 0.203449
0.302327 0 0.217716
0.621241 0 0.200076
0.908034 0 0.125017
1 0 0
1 0 0
1 0 0
1 0 0
0 0.0244144 0.209308
0 0.0117647 0.219593
0.283665 0 0.219654
0.610986 0 0.196277
0.903975 0 0.120806
1 0 0
1 0 0
1 0 0
1 0 0
0 0.245106 0.222766
0 0.235416 0.219409
0.207935 0.207996 0.209873
0.579141 0.126314 0.184802
0.892103 0 0.109209
1 0 0
1 0 0
1 0 0
1 0 0
0 0.523339 0.193454
0 0.518807 0.190082
0 0.506371 0.180972
0.48191 0.471321 0.153323
0.859495 0.362036 0.0750896
1 0 0
1 0 0
1 0 0
1 0 0
0 0.80206 0.117342
0 0.800504 0.113695
0 0.796033 0.103853
0.000488289 0.7841 0.0721752
0.763653 0.750423 0
1 0.634806 0
1 0 0
1 0 0
1 0 0
0 1 0
0 1 0
0 1 0
0 1 0
0 1 0
0.993957 0.986618 0
1 0.886076 0
1 0 0
1 0 0
0 1 0
0 1 0
0 1 0
0 1 0
0 1 0
0.465019 1 0
1 1 0
1 1 0
1 0 0
0 1 0
0 1 0
0 1 0
0 1 0
0 1 0
0 1 0
0.827008 1 0
1 1 0
1 1 0
0 1 0
0 1 0
0 1 0
0 1 0
0 1 0
0 1 0
0 1 0
1 1 0
1 1 0
0 0 0.480446
0 0 0.467094
0.260075 0 0.495323
0.605753 0 0.494087
0.902785 0 0.453544
1 0 0.343725
1 0 0
1 0 0
1 0 0
0 0 0.468589
0 0 0.491722
0.239353 0 0.502739
0.594995 0 0.491386
0.898787 0 0.450996
1 0 0.340993
1 0 0
1 0 0
1 0 0
0 0.216907 0.504021
0 0.206821 0.502403
0.151781 0.179263 0.496941
0.561059 0.0894789 0.481788
0.886244 0 0.443091
1 0 0.333089
1 0 0
1 0 0
1 0 0
0 0.51133 0.481437
0 0.506783 0.479545
0 0.493904 0.474144
0.457237 0.457343 0.460517
0.852338 0.343587 0.423896
1 0 0.313191
1 0 0
1 0 0
1 0 0
0 0.797787 0.434623
0 0.796262 0.432959
0 0.79176 0.428168
0 0.779614 0.414389
0.755444 0.745693 0.376989
1 0.627314 0.250202
1 0 0
1 0 0
1 0 0
0 1 0.229877
0 1 0.226566
0 1 0.216159
0 1 0.186954
0 1 0.090837
0.992615 0.98587 0
1 0.883268 0
1 0 0
1 0 0
0 1 0
0 1 0
0 1 0
0 1 0
0 1 0
0.441245 1 0
1 1 0
1 1 0
1 0 0
0 1 0
0 1 0
0 1 0
0 1 0
0 1 0
0 1 0
0.818494 1 0
1 1 0
1 1 0
0 1 0
0 1 0
0 1 0
0 1 0
0 1 0
0 1 0
0 1 0
1 1 0
1 1 0
0 0 0.773159
0 0 0.761822
0.118502 0 0.790036
0.558282 0 0.797909
0.888304 0 0.77763
1 0 0.732799
1 0 0.601541
1 0 0
1 0 0
0 0 0.762005
0 0 0.783536
0.0803388 0 0.800061
0.545312 0 0.796292
0.883894 0 0.776089
1 0 0.731563
1 0 0.599939
1 0 0
1 0 0
0 0.131518 0.801053
0 0.119203 0.800229
0 0.0822919 0.797345
0.505882 0 0.789593
0.870756 0 0.770703
1 0 0.727504
1 0 0.593988
1 0 0
1 0 0
0 0.476616 0.785443
0 0.471443 0.784527
0 0.457084 0.781842
0.381689 0.417334 0.775219
0.835004 0.287953 0.75906
1 0 0.717678
1 0 0.577081
1 0 0
1 0 0
0 0.786374 0.75697
0 0.784833 0.756374
0 0.780148 0.754498
0 0.767239 0.749477
0.731975 0.732082 0.735622
1 0.607294 0.692973
1 0 0.524163
1 0 0
1 0 0
0 1 0.687556
0 1 0.686748
0 1 0.684215
0 1 0.677195
0 1 0.656397
0.988449 0.983871 0.594018
1 0.875853 0.325231
1 0 0
1 0 0
0 1 0.486244
0 1 0.485954
0 1 0.485237
0 1 0.48368
0 1 0.495171
0.367727 1 0.538857
1 1 0.337469
1 1 0
1 0 0
0 1 0
0 1 0
0 1 0
0 1 0
0 1 0
0 1 0
0.794934 1 0
1 1 0
1 1 0
0 1 0
0 1 0
0 1 0
0 1 0
0 1 0
0 1 0
0 1 0
1 1 0
1 1 0
0 0 1
0 0 1
0 0 1
0.373663 0 1
0.842802 0 1
1 0 1
1 0 0.979553
1 0 0.848829
1 0 0
0 0 1
0 0 1
0 0 1
0.352239 0 1
0.837842 0 1
1 0 1
1 0 0.9794
1 0 0.848234
1 0 0
0 0 1
0 0 1
0 0 1
0.285039 0 1
0.822416 0 1
1 0 0.999756
1 0 0.978866
1 0 0.846601
1 0 0
0 0.362692 1
0 0.355993 1
0 0.336263 1
0.0415351 0.280598 1
0.781994 0.0874342 1
1 0 0.997131
1 0 0.976852
1 0 0.842786
1 0 0
0 0.75346 1
0 0.751781 1
0 0.746929 1
0 0.73283 1
0.652445 0.689372 0.999237
1 0.545007 0.991501
1 0 0.967391
1 0 0.837293
1 0 0
0 1 0.99086
0 1 0.990768
0 1 0.990448
0 1 0.989242
0 0.994827 0.986221
0.977035 0.977096 0.978866
1 0.851911 0.942901
1 0 0.884276
1 0 0
0 1 0.961852
0 1 0.961807
0 1 0.961715
0 1 0.961501
0 1 0.962921
0.0475624 1 0.972259
1 1 0.956634
1 1 0.868086
1 0 0
0 1 0.957137
0 1 0.956863
0 1 0.956191
0 1 0.954406
0 1 0.950118
0 1 0.937789
0.719219 1 0.890623
1 1 0.675975
1 1 0
0 1 0
0 1 0
0 1 0
0 1 0
0 1 0
0 1 0
0 1 0
1 1 0
1 1 0
0 0 1
0 0 1
0 0 1
0 0 1
0.66363 0 1
1 0 1
1 0 1
1 0 1
1 0 1
0 0 1
0 0 1
0 0 1
0 0 1
0.654566 0 1
1 0 1
1 0 1
1 0 1
1 0 1
0 0 1
0 0 1
0 0 1
0 0 1
0.628412 0 1
1 0 1
1 0 1
1 0 1
1 0 1
0 0 1
0 0 1
0 0 1
0 0 1
0.552102 0 1
1 0 1
1 0 1
1 0 1
1 0 1
0 0.636728 1
0 0.633997 1
0 0.626261 1
0 0.605676 1
0.212985 0.542336 1
1 0.267704 1
1 0 1
1 0 1
1 0 1
0 0.989151 1
0 0.988754 1
0 0.987564 1
0 0.985336 1
0 0.978622 1
0.90927 0.944503 1
1 0.780194 1
1 0 1
1 0 1
0 1 1
0 1 1
0 1 1
0 1 1
0 1 1
0 1 1
1 1 1
1 1 1
1 0 1
0 1 1
0 1 1
0 1 1
0 1 1
0 1 1
0 1 1
0.267216 1 1
1 1 1
1 1 1
0 1 1
0 1 1
0 1 1
0 1 1
0 1 1
0 1 1
0 1 1
0.992432 1 1
1 1 0.969329
0 0 1
0 0 1
0 0 1
0 0 1
0 0 1
0.935943 0 1
1 0 1
1 0 1
1 0 1
0 0 1
0 0 1
0 0 1
0 0 1
0 0 1
0.93341 0 1
1 0 1
1 0 1
1 0 1
0 0 1
0 0 1
0 0 1
0 0 1
0 0 1
0.923232 0 1
1 0 1
1 0 1
1 0 1
0 0 1
0 0 1
0 0 1
0 0 1
0 0 1
0.897551 0 1
1 0 1
1 0 1
1 0 1
0 0 1
0 0 1
0 0 1
0 0 1
0 0 1
0.820722 0 1
1 0 1
1 0 1
1 0 1
0 0.900755 1
0 0.899794 1
0 0.897047 1
0 0.889174 1
0 0.866331 1
0.332753 0.791897 1
1 0.364279 1
1 0 1
1 0 1
0 1 1
0 1 1
0 1 1
0 1 1
0 1 1
0 1 1
1 1 1
1 1 1
1 0 1
0 1 1
0 1 1
0 1 1
0 1 1
0 1 1
0 1 1
0 1 1
1 1 1
1 1 1
0 1 1
0 1 1
0 1 1
0 1 1
0 1 1
0 1 1
0 1 1
0.570642 1 1
1 1 1
0 0 1
0 0 1
0 0 1
0 0 1
0 0 1
0 0 1
1 0 1
1 0 1
1 0 1
0 0 1
0 0 1
0 0 1
0 0 1
0 0 1
0 0 1
1 0 1
1 0 1
1 0 1
0 0 1
0 0 1
0 0 1
0 0 1
0 0 1
0 0 1
1 0 1
1 0 1
1 0 1
0 0 1
0 0 1
0 0 1
0 0 1
0 0 1
0 0 1
1 0 1
1 0 1
1 0 1
0 0 1
0 0 1
0 0 1
0 0 1
0 0 1
0 0 1
1 0 1
1 0 1
1 0 1
0 0 1
0 0 1
0 0 1
0 0 1
0 0 1
0 0 1
1 0 1
1 0 1
1 0 1
0 1 1
0 1 1
0 1 1
0 1 1
0 1 1
0 1 1
0.774716 1 1
1 0.88542 1
1 0 1
0 1 1
0 1 1
0 1 1
0 1 1
0 1 1
0 1 1
0 1 1
1 1 1
1 1 1
0 1 1
0 1 1
0 1 1
0 1 1
0 1 1
0 1 1
0 1 1
0 1 1
1 1 1
